;###############################################################################
; File post-processed by the CEL Tech Roboxiser on Mon 3 Dec 2018 09:51:49
; Robox? AutoMaker? - 3.02.00
;
; Pre print gcode
; Printed with safety features OFF
;
; Macro Start - before_print
;
M83				;Set Extruder to Relative moves
M139 E			;Set & heat first layer Bed temp.

;
; Macro Start - Home_all_Axis_in_sequence
;
;Home_all_Axis_in_sequence
G90 			;Use X Y Z Absolute positioning
G0 B0			;ensure nozzle is closed
G0 Z5			;Move up 5mm if homed
G28 Y			;Home Y
G0 Y105			;Position Y
T0				;Select Nozzle 0
G39				;Clear the bed levelling points
G28 Z			;Home Z
G0 Z10			;Move up 10mm if homed
G28 X			;Home X
;
; Macro End - Home_all_Axis_in_sequence
;

M190			;Wait for Bed to get to temp.
M103 T			;Set & heat first layer nozzle temp.
T1
M109			;Wait for Nozzle to get to temp.
M170 E			;Set Ambient temp.

;
; Macro Start - Short_Purge
;
;Short_Purge_T1 (Dual Material)
G0 Y-6 X36 Z8
T1
M109
;G0 Z1
G0 Z0.5
G1 Y-4 F400
G36 E1200 F400
G0 B1
G1 E3 F200
G1 E30 X24 F200
G1 E5 X36 F200
G1 E5 X24 F200
G1 B0
G1 B0
G1 B0
;G0 Z2
G0 Z1.5
G0 Y3
;
; Macro End - Short_Purge
;

;
; Macro Start - Level_Gantry_(2-points)
;
;Level_Gantry

G4 S1

T0			;Select Nozzle 0
G90
G0 Z4
G0 X205 Y6
G28 Z                   ;Wipe Nozzle 0

G0 Z4
G0 X20 Y75		;Level Gantry Position 1
G28 Z			;Home Z
G0 Z4 			;Move up 4mm
G0 X190 Y75		;Level Gantry Position 2
G28 Z			;Home Z
G0 Z4 			;Move up 4mm
G38 			;Level gantry
;
; Macro End - Level_Gantry_(2-points)
;

;
; Macro Start - 7_point_Bed_probing-Set_Washout
;
;7_point_Bed_probing-Set_Washout
G0 Y20
G28 Z
G0 Z2
G0 X105
G28 Z
G0 Z2
G0 X20
G28 Z
G0 Z2
G0 Y130
G28 Z
G0 Z2
G0 X105
G28 Z
G0 Z2
G0 X190
G28 Z
G0 Z2
G0 X105 Y75
G28 Z
G0 Z2

G39 S0.5		;set washout over the first 2mm
;
; Macro End - 7_point_Bed_probing-Set_Washout
;

;Centre head and prime
;G0 X105 Y75 Z5
G1 E1.5 F400
M129			;Head LED on
;
; Macro End - before_print
;
; End of Pre print gcode
;LAYER:0 height:0.300
M107
G1 F12000 X99.960 Y71.567 Z0.337 Z0.300 
T1 ; Tool Node duration: 16.85313331065037
;TYPE:WALL-INNER
M109
G0 B1
G1 F240 X100.440 Y70.964 Z0.487 E0.13882
G1 F240 X100.529 Y70.853 Z0.487 E0.02563
G1 F240 X101.196 Y70.234 Z0.486 E0.16391
G1 F240 X101.952 Y69.719 Z0.486 E0.16477
G1 F240 X102.774 Y69.322 Z0.485 E0.16442
G1 F240 X103.508 Y69.097 Z0.484 E0.13828
G1 F240 X103.645 Y69.055 Z0.484 E0.02581
G1 F240 X104.404 Y68.941 Z0.483 E0.13825
G1 F240 X104.543 Y68.919 Z0.483 E0.02535
G1 F240 X105.457 Y68.919 Z0.482 E0.16463
G1 F240 X106.217 Y69.033 Z0.482 E0.13842
G1 F240 X106.352 Y69.054 Z0.482 E0.02461
G1 F240 X107.091 Y69.281 Z0.482 E0.13925
G1 F240 X107.229 Y69.324 Z0.482 E0.02604
G1 F240 X108.048 Y69.718 Z0.482 E0.16370
G1 F240 X108.801 Y70.232 Z0.482 E0.16422
G1 F240 X109.469 Y70.851 Z0.482 E0.16404
G1 F240 X109.948 Y71.453 Z0.482 E0.13857
G1 F240 X110.039 Y71.567 Z0.482 E0.02627
G1 F240 X110.491 Y72.350 Z0.481 E0.16285
G1 F240 X110.775 Y73.071 Z0.481 E0.13958
G1 F240 X110.826 Y73.201 Z0.481 E0.02515
G1 F240 X110.997 Y73.953 Z0.481 E0.13891
G1 F240 X111.029 Y74.094 Z0.481 E0.02604
G1 F240 X111.098 Y75.000 Z0.481 E0.16366
G1 F240 X111.029 Y75.904 Z0.48 E0.16330
G1 F240 X110.859 Y76.657 Z0.479 E0.13904
G1 F240 X110.827 Y76.794 Z0.479 E0.02534
G1 F240 X110.546 Y77.511 Z0.478 E0.13871
G1 F240 X110.492 Y77.647 Z0.478 E0.02636
G1 F240 X110.039 Y78.432 Z0.477 E0.16325
G1 F240 X109.559 Y79.035 Z0.476 E0.13882
G1 F240 X109.470 Y79.146 Z0.476 E0.02563
G1 F240 X108.801 Y79.767 Z0.475 E0.16441
G1 F240 X108.048 Y80.281 Z0.475 E0.16422
G1 F240 X107.228 Y80.676 Z0.474 E0.16394
G1 F240 X106.491 Y80.902 Z0.474 E0.13885
G1 F240 X106.354 Y80.944 Z0.474 E0.02581
G1 F240 X105.595 Y81.058 Z0.474 E0.13825
G1 F240 X105.456 Y81.080 Z0.474 E0.02535
G1 F240 X104.542 Y81.080 Z0.475 E0.16463
G1 F240 X103.782 Y80.966 Z0.476 E0.13842
G1 F240 X103.647 Y80.945 Z0.476 E0.02461
G1 F240 X102.908 Y80.718 Z0.477 E0.13925
G1 F240 X102.773 Y80.676 Z0.477 E0.02547
G1 F240 X101.952 Y80.280 Z0.478 E0.16418
G1 F240 X101.196 Y79.765 Z0.48 E0.16477
G1 F240 X100.530 Y79.148 Z0.481 E0.16353
G1 F240 X100.051 Y78.546 Z0.482 E0.13857
G1 F240 X99.960 Y78.432 Z0.483 E0.02627
G1 F240 X99.508 Y77.649 Z0.484 E0.16285
G1 F240 X99.224 Y76.928 Z0.485 E0.13958
G1 F240 X99.173 Y76.798 Z0.485 E0.02515
G1 F240 X99.002 Y76.046 Z0.486 E0.13891
G1 F240 X98.971 Y75.911 Z0.486 E0.02495
G1 F240 X98.913 Y75.141 Z0.487 E0.13909
G1 F240 X98.903 Y75.005 Z0.487 E0.02456
G1 F240 X98.960 Y74.232 Z0.488 E0.13961
G1 F240 X98.970 Y74.095 Z0.488 E0.02474
G1 F240 X99.140 Y73.342 Z0.488 E0.13904
G1 F240 X99.172 Y73.205 Z0.488 E0.02534
G1 F240 X99.453 Y72.488 Z0.488 E0.13871
G1 F240 X99.507 Y72.352 Z0.488 E0.02636
G1 F240 X99.960 Y71.567 Z0.487 E0.16325
G1 F12000 X99.464 Y71.226 Z0.488 
;TYPE:WALL-OUTER
G1 F240 X100.090 Y70.441 Z0.487 E0.18085
G1 F240 X100.822 Y69.763 Z0.487 E0.17972
G1 F240 X101.653 Y69.196 Z0.486 E0.18120
G1 F240 X102.549 Y68.764 Z0.485 E0.17917
G1 F240 X103.508 Y68.469 Z0.484 E0.18072
G1 F240 X104.314 Y68.348 Z0.483 E0.14680
G1 F240 X104.497 Y68.319 Z0.483 E0.03337
G1 F240 X105.499 Y68.319 Z0.483 E0.18048
G1 F240 X106.306 Y68.440 Z0.482 E0.14698
G1 F240 X106.485 Y68.467 Z0.482 E0.03261
G1 F240 X107.450 Y68.764 Z0.482 E0.18186
G1 F240 X108.347 Y69.196 Z0.482 E0.17933
G1 F240 X109.177 Y69.763 Z0.482 E0.18105
G1 F240 X109.909 Y70.441 Z0.482 E0.17972
G1 F240 X110.535 Y71.226 Z0.482 E0.18085
G1 F240 X111.036 Y72.094 Z0.482 E0.18052
G1 F240 X111.401 Y73.022 Z0.481 E0.17962
G1 F240 X111.582 Y73.819 Z0.481 E0.14721
G1 F240 X111.624 Y73.999 Z0.481 E0.03329
G1 F240 X111.699 Y75.000 Z0.481 E0.18081
G1 F240 X111.624 Y75.995 Z0.48 E0.17973
G1 F240 X111.443 Y76.793 Z0.479 E0.14739
G1 F240 X111.403 Y76.972 Z0.479 E0.03304
G1 F240 X111.036 Y77.905 Z0.478 E0.18059
G1 F240 X110.535 Y78.773 Z0.477 E0.18052
G1 F240 X109.909 Y79.558 Z0.476 E0.18085
G1 F240 X109.177 Y80.236 Z0.475 E0.17972
G1 F240 X108.347 Y80.803 Z0.474 E0.18105
G1 F240 X107.450 Y81.235 Z0.474 E0.17933
G1 F240 X106.491 Y81.530 Z0.474 E0.18072
G1 F240 X105.685 Y81.651 Z0.473 E0.14680
G1 F240 X105.502 Y81.680 Z0.473 E0.03337
G1 F240 X104.500 Y81.680 Z0.474 E0.18048
G1 F240 X103.693 Y81.559 Z0.475 E0.14698
G1 F240 X103.514 Y81.532 Z0.475 E0.03261
G1 F240 X102.549 Y81.235 Z0.477 E0.18186
G1 F240 X101.653 Y80.803 Z0.478 E0.17917
G1 F240 X100.822 Y80.236 Z0.48 E0.18120
G1 F240 X100.090 Y79.558 Z0.481 E0.17972
G1 F240 X99.464 Y78.773 Z0.483 E0.18085
G1 F240 X98.963 Y77.905 Z0.484 E0.18052
G1 F240 X98.598 Y76.977 Z0.486 E0.17962
G1 F240 X98.417 Y76.180 Z0.487 E0.14721
G1 F240 X98.375 Y75.999 Z0.487 E0.03347
G1 F240 X98.301 Y75.000 Z0.488 E0.18043
G1 F240 X98.375 Y74.004 Z0.488 E0.17990
G1 F240 X98.556 Y73.206 Z0.488 E0.14739
G1 F240 X98.596 Y73.027 Z0.488 E0.03304
G1 F240 X98.963 Y72.094 Z0.488 E0.18059
G1 F240 X99.464 Y71.226 Z0.488 E0.18052
G1 F12000 X99.836 Y72.259 Z0.487 
;TYPE:SKIN
G1 F240 X107.739 Y80.162 Z0.475 E2.01313
G1 F12000 X107.167 Y80.439 Z0.475 
G1 F240 X99.570 Y72.841 Z0.487 E1.93531
G1 F12000 X99.354 Y73.474 Z0.487 
G1 F240 X106.521 Y80.641 Z0.475 E1.82565
G1 F12000 X105.814 Y80.782 Z0.474 
G1 F240 X99.203 Y74.171 Z0.487 E1.68402
G1 F12000 X99.146 Y74.963 Z0.487 
G1 F240 X105.023 Y80.839 Z0.474 E1.49692
G1 F12000 X104.105 Y80.770 Z0.475 
G1 F240 X99.209 Y75.874 Z0.486 E1.24716
G1 F12000 X99.524 Y77.038 Z0.485 
G1 F240 X102.974 Y80.488 Z0.477 E0.87882
G1 F12000 X108.265 Y79.840 Z0.475 
G1 F240 X100.146 Y71.721 Z0.487 E2.06815
G1 F12000 X100.520 Y71.246 Z0.487 
G1 F240 X108.755 Y79.480 Z0.476 E2.09757
G1 F12000 X109.195 Y79.072 Z0.476 
G1 F240 X100.930 Y70.807 Z0.486 E2.10534
G1 F12000 X101.374 Y70.403 Z0.486 
G1 F240 X109.585 Y78.614 Z0.477 E2.09158
G1 F12000 X109.940 Y78.121 Z0.477 
G1 F240 X101.879 Y70.059 Z0.486 E2.0535
G1 F12000 X102.425 Y69.756 Z0.485 
G1 F240 X110.252 Y77.583 Z0.478 E1.99377
G1 F12000 X110.496 Y76.979 Z0.479 
G1 F240 X103.015 Y69.498 Z0.484 E1.90563
G1 F12000 X103.665 Y69.300 Z0.484 
G1 F240 X110.687 Y76.322 Z0.479 E1.78871
G1 F12000 X110.810 Y75.596 Z0.48 
G1 F240 X104.397 Y69.183 Z0.483 E1.63358
G1 F12000 X105.221 Y69.159 Z0.482 
G1 F240 X110.839 Y74.777 Z0.481 E1.43107
G1 F12000 X110.715 Y73.804 Z0.481 
G1 F240 X106.181 Y69.270 Z0.482 E1.15494
G1 F12000 X107.461 Y69.701 Z0.482 
G1 F240 X110.313 Y72.554 Z0.481 E0.72662
M140;Go to bed temperature from loaded reel - don't wait
;LAYER:1 height:0.500
M104 T; Switch heater(s) to subsequent layer temperature
M106 S127
G1 F12000 X110.977 Y72.766 Z0.500 
; Suppressed Tool Node -T start 17.521866845922613 T finish 36.27130238186707 ; Tool Node duration: 18.749435535944446
;TYPE:WALL-INNER
G1 F1020 X111.114 Y73.113 E0.02987
G1 F1020 X111.326 Y74.047 E0.07667
G1 F1020 X111.399 Y75.000 E0.07651
G1 F1020 X111.327 Y75.952 E0.07643
G1 F1020 X111.115 Y76.883 E0.07644
G1 F1020 X110.901 Y77.428 E0.04687
G1 F1020 X110.766 Y77.772 E0.02958
G1 F1020 X110.284 Y78.607 E0.07718
G1 F1020 X109.691 Y79.351 E0.07616
G1 F1020 X108.988 Y80.002 E0.07670
G1 F1020 X108.201 Y80.540 E0.07632
G1 F1020 X107.338 Y80.955 E0.07666
G1 F1020 X106.780 Y81.127 E0.04674
G1 F1020 X106.421 Y81.238 E0.03008
G1 F1020 X105.847 Y81.324 E0.04646
G1 F1020 X105.479 Y81.380 E0.02980
G1 F1020 X104.518 Y81.380 E0.07693
G1 F1020 X103.946 Y81.294 E0.04631
G1 F1020 X103.580 Y81.238 E0.02964
G1 F1020 X103.018 Y81.066 E0.04705
G1 F1020 X102.664 Y80.957 E0.02965
G1 F1020 X101.801 Y80.541 E0.07669
G1 F1020 X101.009 Y80.001 E0.07674
G1 F1020 X100.308 Y79.351 E0.07653
G1 F1020 X99.715 Y78.607 E0.07616
G1 F1020 X99.235 Y77.776 E0.07682
G1 F1020 X99.022 Y77.233 E0.04669
G1 F1020 X98.885 Y76.886 E0.02987
G1 F1020 X98.673 Y75.952 E0.07667
G1 F1020 X98.630 Y75.373 E0.04648
G1 F1020 X98.601 Y74.998 E0.03011
G1 F1020 X98.644 Y74.420 E0.04640
G1 F1020 X98.673 Y74.047 E0.02995
G1 F1020 X98.884 Y73.116 E0.07642
G1 F1020 X99.098 Y72.571 E0.04687
G1 F1020 X99.233 Y72.227 E0.02958
G1 F1020 X99.715 Y71.392 E0.07718
G1 F1020 X100.308 Y70.648 E0.07616
G1 F1020 X101.009 Y69.998 E0.07653
G1 F1020 X101.801 Y69.458 E0.07674
G1 F1020 X102.661 Y69.044 E0.07641
G1 F1020 X103.219 Y68.872 E0.04674
G1 F1020 X103.578 Y68.761 E0.03008
G1 F1020 X104.152 Y68.675 E0.04646
G1 F1020 X104.520 Y68.619 E0.02980
G1 F1020 X105.481 Y68.619 E0.07693
G1 F1020 X106.053 Y68.705 E0.04631
G1 F1020 X106.419 Y68.761 E0.02964
G1 F1020 X106.981 Y68.933 E0.04705
G1 F1020 X107.335 Y69.042 E0.02965
G1 F1020 X108.201 Y69.459 E0.07695
G1 F1020 X108.988 Y69.997 E0.07632
G1 F1020 X109.691 Y70.648 E0.07670
G1 F1020 X110.284 Y71.392 E0.07616
G1 F1020 X110.764 Y72.223 E0.07682
G1 F1020 X110.977 Y72.766 E0.04669
G1 F12000 X111.497 Y72.994 
;TYPE:WALL-OUTER
G1 F900 X111.723 Y73.988 E0.08160
G1 F900 X111.800 Y75.000 E0.08125
G1 F900 X111.723 Y76.011 E0.08117
G1 F900 X111.497 Y77.005 E0.08160
G1 F900 X111.126 Y77.950 E0.08127
G1 F900 X110.618 Y78.830 E0.08134
G1 F900 X109.986 Y79.623 E0.08118
G1 F900 X109.237 Y80.316 E0.08169
G1 F900 X108.399 Y80.889 E0.08127
G1 F900 X107.484 Y81.329 E0.08128
G1 F900 X106.515 Y81.628 E0.08118
G1 F900 X105.506 Y81.780 E0.08169
G1 F900 X104.493 Y81.780 E0.08109
G1 F900 X103.484 Y81.628 E0.08169
G1 F900 X102.515 Y81.329 E0.08118
G1 F900 X101.601 Y80.889 E0.08121
G1 F900 X100.762 Y80.316 E0.08133
G1 F900 X100.013 Y79.623 E0.08169
G1 F900 X99.381 Y78.830 E0.08118
G1 F900 X98.873 Y77.950 E0.08134
G1 F900 X98.502 Y77.005 E0.08127
G1 F900 X98.276 Y76.011 E0.08160
G1 F900 X98.200 Y75.000 E0.08116
G1 F900 X98.276 Y73.988 E0.08124
G1 F900 X98.502 Y72.994 E0.08160
G1 F900 X98.873 Y72.049 E0.08127
G1 F900 X99.381 Y71.169 E0.08134
G1 F900 X100.013 Y70.376 E0.08118
G1 F900 X100.762 Y69.683 E0.08169
G1 F900 X101.601 Y69.110 E0.08133
G1 F900 X102.515 Y68.670 E0.08121
G1 F900 X103.484 Y68.371 E0.08118
G1 F900 X104.493 Y68.219 E0.08169
G1 F900 X105.506 Y68.219 E0.08109
G1 F900 X106.515 Y68.371 E0.08169
G1 F900 X107.484 Y68.670 E0.08118
G1 F900 X108.399 Y69.110 E0.08128
G1 F900 X109.237 Y69.683 E0.08127
G1 F900 X109.986 Y70.376 E0.08169
G1 F900 X110.618 Y71.169 E0.08118
G1 F900 X111.126 Y72.049 E0.08134
G1 F900 X111.497 Y72.994 E0.08127
G1 F12000 X110.961 Y73.169 
;TYPE:FILL
G1 F1260 X103.181 Y80.948 E0.88074
G1 F12000 X103.614 Y81.081 
G1 F1260 X111.065 Y73.630 E0.84355
G1 F12000 X111.169 Y74.092 
G1 F1260 X104.105 Y81.156 E0.79974
G1 F12000 X104.607 Y81.220 
G1 F1260 X111.208 Y74.618 E0.74738
G1 F12000 X111.225 Y75.168 
G1 F1260 X105.172 Y81.220 E0.68522
G1 F12000 X105.786 Y81.172 
G1 F1260 X111.179 Y75.779 E0.61056
G1 F12000 X111.041 Y76.483 
G1 F1260 X106.468 Y81.056 E0.51772
G1 F12000 X107.290 Y80.800 
G1 F1260 X110.770 Y77.320 E0.39398
G1 F12000 X110.168 Y78.487 
G1 F1260 X108.547 Y80.108 E0.18352
G1 F12000 X102.748 Y80.815 
G1 F1260 X110.802 Y72.761 E0.91182
G1 F12000 X110.643 Y72.355 
G1 F1260 X102.363 Y80.635 E0.93740
G1 F12000 X101.981 Y80.451 
G1 F1260 X110.443 Y71.989 E0.95801
G1 F12000 X110.236 Y71.631 
G1 F1260 X101.633 Y80.234 E0.97397
G1 F12000 X101.297 Y80.004 
G1 F1260 X110.003 Y71.298 E0.98563
G1 F12000 X109.752 Y70.983 
G1 F1260 X100.980 Y79.755 E0.99311
G1 F12000 X100.686 Y79.484 
G1 F1260 X109.490 Y70.680 E0.99673
G1 F12000 X109.196 Y70.408 
G1 F1260 X100.397 Y79.207 E0.99616
G1 F12000 X100.146 Y78.892 
G1 F1260 X108.902 Y70.137 E0.99124
G1 F12000 X108.569 Y69.904 
G1 F1260 X99.895 Y78.577 E0.98195
G1 F12000 X99.680 Y78.227 
G1 F1260 X108.233 Y69.674 E0.96831
G1 F12000 X107.867 Y69.475 
G1 F1260 X99.473 Y77.868 E0.95025
G1 F12000 X99.292 Y77.484 
G1 F1260 X107.485 Y69.291 E0.92756
G1 F12000 X107.080 Y69.131 
G1 F1260 X99.132 Y77.078 E0.89976
G1 F12000 X98.995 Y76.649 
G1 F1260 X106.647 Y68.998 E0.86625
G1 F12000 X106.191 Y68.888 
G1 F1260 X98.891 Y76.188 E0.82646
G1 F12000 X98.813 Y75.700 
G1 F1260 X105.699 Y68.814 E0.77959
G1 F12000 X105.169 Y68.778 
G1 F1260 X98.773 Y75.174 E0.72411
G1 F12000 X98.791 Y74.591 
G1 F1260 X104.603 Y68.778 E0.65805
G1 F12000 X103.950 Y68.866 
G1 F1260 X98.855 Y73.961 E0.57682
G1 F12000 X99.022 Y73.228 
G1 F1260 X103.209 Y69.041 E0.47402
G1 F12000 X102.282 Y69.403 
G1 F1260 X99.370 Y72.315 E0.32968
;TYPE:SKIN
G1 F1260 X99.851 Y71.834 E0.05446
G1 F12000 X99.321 Y72.929 
G1 F1260 X99.057 Y73.475 E0.03374
G1 F1260 X98.920 Y74.178 E0.02695
G1 F1260 X98.866 Y74.798 E0.02192
G1 F1260 X98.877 Y75.353 E0.01889
G1 F1260 X98.926 Y75.869 E0.01898
G1 F1260 X99.017 Y76.344 E0.01675
G1 F1260 X99.132 Y76.794 E0.01682
G1 F1260 X99.281 Y77.212 E0.01563
G1 F1260 X99.448 Y77.610 E0.01555
G1 F1260 X99.642 Y77.982 E0.01478
G1 F1260 X99.851 Y78.338 E0.01479
G1 F1260 X100.020 Y78.734 E0.01448
G1 F1260 X100.399 Y78.922 E0.01439
G1 F1260 X100.541 Y79.345 E0.01429
G1 F1260 X100.960 Y79.492 E0.01431
G1 F1260 X101.138 Y79.879 E0.01432
G1 F1260 X101.428 Y79.874 E0.02322
G1 F12000 X108.547 Y80.108 
G1 F1260 X110.168 Y78.487 E0.18352
G1 F12000 X110.447 Y77.643 
G1 F1260 X110.785 Y77.021 E0.03641
G1 F1260 X111.004 Y76.237 E0.02721
G1 F1260 X111.104 Y75.571 E0.02386
G1 F1260 X111.133 Y74.977 E0.02214
G1 F1260 X111.104 Y74.439 E0.01887
G1 F1260 X111.042 Y73.936 E0.01907
G1 F1260 X110.938 Y73.474 E0.01687
G1 F1260 X110.812 Y73.034 E0.01695
G1 F1260 X110.653 Y72.627 E0.01557
G1 F1260 X110.477 Y72.238 E0.01572
G1 F1260 X110.274 Y71.875 E0.01482
G1 F1260 X110.119 Y71.464 E0.01477
G1 F1260 X109.749 Y71.268 E0.01450
G1 F1260 X109.621 Y70.831 E0.01449
G1 F1260 X109.216 Y70.671 E0.01429
G1 F1260 X109.049 Y70.272 E0.01437
G1 F1260 X108.606 Y70.149 E0.01435
G1 F1260 X108.401 Y69.789 E0.01459
G1 F1260 X107.984 Y69.640 E0.01480
G1 F1260 X107.608 Y69.451 E0.01533
G1 F1260 X107.214 Y69.279 E0.01540
G1 F1260 X106.791 Y69.136 E0.01626
G1 F1260 X106.347 Y69.015 E0.01621
G1 F1260 X105.865 Y68.930 E0.01793
G1 F1260 X105.354 Y68.875 E0.01790
G1 F1260 X104.796 Y68.868 E0.02033
G1 F1260 X104.175 Y68.923 E0.02296
G1 F1260 X103.471 Y69.061 E0.02441
G1 F1260 X102.609 Y69.358 E0.03065
G1 F1260 X101.846 Y69.839 E0.07221
G1 F12000 X101.763 Y80.103 
G1 F1260 X101.807 Y80.342 E0.01469
G1 F1260 X102.240 Y80.475 E0.01532
G1 F1260 X102.623 Y80.657 E0.01536
G1 F1260 X103.037 Y80.809 E0.01633
G1 F1260 X103.470 Y80.942 E0.01641
G1 F1260 X103.939 Y81.039 E0.01792
G1 F1260 X104.436 Y81.108 E0.01808
G1 F1260 X104.979 Y81.130 E0.02034
G1 F1260 X105.569 Y81.106 E0.02033
G1 F1260 X106.235 Y81.005 E0.02440
G1 F1260 X107.015 Y80.791 E0.03092
G1 F1260 X107.673 Y80.417 E0.06059
;LAYER:2 height:0.700
M106 S255
G1 F12000 X108.204 Y80.538 Z0.700 
; Suppressed Tool Node -T start 36.27130238186707 T finish 54.29976630219194 ; Tool Node duration: 18.028463920324842
;TYPE:WALL-INNER
G1 F840 X107.334 Y80.957 E0.07730
G1 F840 X106.424 Y81.238 E0.07624
G1 F840 X105.479 Y81.380 E0.07650
G1 F840 X104.520 Y81.380 E0.07677
G1 F840 X103.575 Y81.238 E0.07650
G1 F840 X102.665 Y80.957 E0.07624
G1 F840 X101.801 Y80.541 E0.07677
G1 F840 X101.009 Y80.001 E0.07674
G1 F840 X100.308 Y79.351 E0.07653
G1 F840 X99.715 Y78.607 E0.07616
G1 F840 X99.234 Y77.773 E0.07707
G1 F840 X98.885 Y76.887 E0.07623
G1 F840 X98.673 Y75.952 E0.07675
G1 F840 X98.601 Y75.000 E0.07643
G1 F840 X98.673 Y74.047 E0.07651
G1 F840 X98.885 Y73.112 E0.07675
G1 F840 X99.234 Y72.226 E0.07623
G1 F840 X99.715 Y71.392 E0.07707
G1 F840 X100.308 Y70.648 E0.07616
G1 F840 X101.009 Y69.998 E0.07653
G1 F840 X101.801 Y69.458 E0.07674
G1 F840 X102.665 Y69.042 E0.07677
G1 F840 X103.575 Y68.761 E0.07624
G1 F840 X104.520 Y68.619 E0.07650
G1 F840 X105.479 Y68.619 E0.07677
G1 F840 X106.424 Y68.761 E0.07650
G1 F840 X107.334 Y69.042 E0.07624
G1 F840 X108.204 Y69.461 E0.07730
G1 F840 X108.985 Y69.994 E0.07569
G1 F840 X109.691 Y70.648 E0.07704
G1 F840 X110.284 Y71.392 E0.07616
G1 F840 X110.765 Y72.226 E0.07707
G1 F840 X111.114 Y73.112 E0.07623
G1 F840 X111.326 Y74.047 E0.07675
G1 F840 X111.399 Y75.000 E0.07651
G1 F840 X111.327 Y75.952 E0.07643
G1 F840 X111.114 Y76.887 E0.07677
G1 F840 X110.765 Y77.773 E0.07623
G1 F840 X110.284 Y78.607 E0.07707
G1 F840 X109.691 Y79.351 E0.07616
G1 F840 X108.985 Y80.005 E0.07704
G1 F840 X108.204 Y80.538 E0.07569
G1 F12000 X108.399 Y80.889 
;TYPE:WALL-OUTER
G1 F720 X107.484 Y81.329 E0.08128
G1 F720 X106.515 Y81.628 E0.08118
G1 F720 X105.506 Y81.780 E0.08169
G1 F720 X104.493 Y81.780 E0.08109
G1 F720 X103.484 Y81.628 E0.08169
G1 F720 X102.515 Y81.329 E0.08118
G1 F720 X101.601 Y80.889 E0.08121
G1 F720 X100.762 Y80.316 E0.08133
G1 F720 X100.013 Y79.623 E0.08169
G1 F720 X99.381 Y78.830 E0.08118
G1 F720 X98.873 Y77.950 E0.08134
G1 F720 X98.502 Y77.005 E0.08127
G1 F720 X98.276 Y76.011 E0.08160
G1 F720 X98.200 Y75.000 E0.08116
G1 F720 X98.276 Y73.988 E0.08124
G1 F720 X98.502 Y72.994 E0.08160
G1 F720 X98.873 Y72.049 E0.08127
G1 F720 X99.381 Y71.169 E0.08134
G1 F720 X100.013 Y70.376 E0.08118
G1 F720 X100.762 Y69.683 E0.08169
G1 F720 X101.601 Y69.110 E0.08133
G1 F720 X102.515 Y68.670 E0.08121
G1 F720 X103.484 Y68.371 E0.08118
G1 F720 X104.493 Y68.219 E0.08169
G1 F720 X105.506 Y68.219 E0.08109
G1 F720 X106.515 Y68.371 E0.08169
G1 F720 X107.484 Y68.670 E0.08118
G1 F720 X108.399 Y69.110 E0.08128
G1 F720 X109.237 Y69.683 E0.08127
G1 F720 X109.986 Y70.376 E0.08169
G1 F720 X110.618 Y71.169 E0.08118
G1 F720 X111.126 Y72.049 E0.08134
G1 F720 X111.497 Y72.994 E0.08127
G1 F720 X111.723 Y73.988 E0.08160
G1 F720 X111.800 Y75.000 E0.08125
G1 F720 X111.723 Y76.011 E0.08117
G1 F720 X111.497 Y77.005 E0.08160
G1 F720 X111.126 Y77.950 E0.08127
G1 F720 X110.618 Y78.830 E0.08134
G1 F720 X109.986 Y79.623 E0.08118
G1 F720 X109.237 Y80.316 E0.08169
G1 F720 X108.399 Y80.889 E0.08127
G1 F12000 X108.287 Y80.286 
;TYPE:FILL
G1 F1980 X99.713 Y71.711 E0.97075
G1 F12000 X99.935 Y71.368 
G1 F1980 X108.623 Y80.056 E0.98360
G1 F12000 X107.927 Y80.492 
G1 F1980 X99.506 Y72.070 E0.95342
G1 F12000 X99.316 Y72.446 
G1 F1980 X107.545 Y80.675 E0.93163
G1 F12000 X107.149 Y80.844 
G1 F1980 X99.157 Y72.853 E0.90474
G1 F12000 X99.011 Y73.272 
G1 F1980 X106.717 Y80.979 E0.87248
G1 F12000 X106.271 Y81.098 
G1 F1980 X98.906 Y73.733 E0.83381
G1 F12000 X98.819 Y74.212 
G1 F1980 X105.779 Y81.172 E0.78796
G1 F12000 X105.261 Y81.219 
G1 F1980 X98.779 Y74.737 E0.73385
G1 F12000 X98.782 Y75.306 
G1 F1980 X104.695 Y81.219 E0.66943
G1 F12000 X104.058 Y81.148 
G1 F1980 X98.829 Y75.919 E0.59199
G1 F12000 X98.994 Y76.649 
G1 F1980 X103.344 Y80.999 E0.49248
G1 F12000 X102.460 Y80.681 
G1 F1200 X99.309 Y77.530 E0.35673
G1 F12000 X100.305 Y79.092 
G1 F1200 X100.824 Y79.611 E0.05876
G1 F12000 X108.949 Y79.816 
G1 F1980 X100.187 Y71.054 E0.99197
G1 F12000 X100.440 Y70.742 
G1 F1980 X109.243 Y79.545 E0.99662
G1 F12000 X109.537 Y79.273 
G1 F1980 X100.735 Y70.470 E0.99656
G1 F12000 X101.028 Y70.198 
G1 F1980 X109.794 Y78.964 E0.99243
G1 F12000 X110.045 Y78.650 
G1 F1980 X101.353 Y69.957 E0.98411
G1 F12000 X101.689 Y69.727 
G1 F1980 X110.271 Y78.309 E0.97160
G1 F12000 X110.478 Y77.951 
G1 F1980 X102.045 Y69.518 E0.95473
G1 F12000 X102.427 Y69.334 
G1 F1980 X110.669 Y77.577 E0.93316
G1 F12000 X110.829 Y77.171 
G1 F1980 X102.820 Y69.162 E0.90672
G1 F12000 X103.252 Y69.028 
G1 F1980 X110.978 Y76.755 E0.87474
G1 F12000 X111.084 Y76.294 
G1 F1980 X103.695 Y68.905 E0.83653
G1 F12000 X104.186 Y68.831 
G1 F1980 X111.176 Y75.821 E0.79136
G1 F12000 X111.215 Y75.294 
G1 F1980 X104.700 Y68.779 E0.73758
G1 F12000 X105.266 Y68.779 
G1 F1980 X111.217 Y74.731 E0.67379
G1 F12000 X111.171 Y74.118 
G1 F1980 X105.897 Y68.844 E0.59709
G1 F12000 X106.602 Y68.983 
G1 F1980 X111.014 Y73.396 E0.49955
G1 F12000 X110.711 Y72.527 
G1 F1200 X107.468 Y69.285 E0.36709
G1 F12000 X108.837 Y70.088 
G1 F1200 X109.835 Y71.086 E0.11299
;LAYER:3 height:0.900
M104T220
G1 F12000 X109.691 Y70.648 Z0.900 
; Suppressed Tool Node -T start 54.29976630219194 T finish 72.27087931450511 ; Tool Node duration: 17.97111301231311
;TYPE:WALL-INNER
G1 F840 X110.284 Y71.392 E0.07616
G1 F840 X110.765 Y72.226 E0.07707
G1 F840 X111.114 Y73.112 E0.07623
G1 F840 X111.326 Y74.047 E0.07675
G1 F840 X111.399 Y75.000 E0.07651
G1 F840 X111.327 Y75.952 E0.07643
G1 F840 X111.114 Y76.887 E0.07677
G1 F840 X110.765 Y77.773 E0.07623
G1 F840 X110.284 Y78.607 E0.07707
G1 F840 X109.691 Y79.351 E0.07616
G1 F840 X108.985 Y80.005 E0.07704
G1 F840 X108.204 Y80.538 E0.07569
G1 F840 X107.334 Y80.957 E0.07730
G1 F840 X106.424 Y81.238 E0.07624
G1 F840 X105.479 Y81.380 E0.07650
G1 F840 X104.520 Y81.380 E0.07677
G1 F840 X103.575 Y81.238 E0.07650
G1 F840 X102.665 Y80.957 E0.07624
G1 F840 X101.801 Y80.541 E0.07677
G1 F840 X101.009 Y80.001 E0.07674
G1 F840 X100.308 Y79.351 E0.07653
G1 F840 X99.715 Y78.607 E0.07616
G1 F840 X99.234 Y77.773 E0.07707
G1 F840 X98.885 Y76.887 E0.07623
G1 F840 X98.673 Y75.952 E0.07675
G1 F840 X98.601 Y75.000 E0.07643
G1 F840 X98.673 Y74.047 E0.07651
G1 F840 X98.885 Y73.112 E0.07675
G1 F840 X99.234 Y72.226 E0.07623
G1 F840 X99.715 Y71.392 E0.07707
G1 F840 X100.308 Y70.648 E0.07616
G1 F840 X101.009 Y69.998 E0.07653
G1 F840 X101.801 Y69.458 E0.07674
G1 F840 X102.665 Y69.042 E0.07677
G1 F840 X103.575 Y68.761 E0.07624
G1 F840 X104.520 Y68.619 E0.07650
G1 F840 X105.479 Y68.619 E0.07677
G1 F840 X106.424 Y68.761 E0.07650
G1 F840 X107.334 Y69.042 E0.07624
G1 F840 X108.204 Y69.461 E0.07730
G1 F840 X108.985 Y69.994 E0.07569
G1 F840 X109.691 Y70.648 E0.07704
G1 F12000 X109.986 Y70.376 
;TYPE:WALL-OUTER
G1 F720 X110.618 Y71.169 E0.08118
G1 F720 X111.126 Y72.049 E0.08134
G1 F720 X111.497 Y72.994 E0.08127
G1 F720 X111.723 Y73.988 E0.08160
G1 F720 X111.800 Y75.000 E0.08125
G1 F720 X111.723 Y76.011 E0.08117
G1 F720 X111.497 Y77.005 E0.08160
G1 F720 X111.126 Y77.950 E0.08127
G1 F720 X110.618 Y78.830 E0.08134
G1 F720 X109.986 Y79.623 E0.08118
G1 F720 X109.237 Y80.316 E0.08169
G1 F720 X108.399 Y80.889 E0.08127
G1 F720 X107.484 Y81.329 E0.08128
G1 F720 X106.515 Y81.628 E0.08118
G1 F720 X105.506 Y81.780 E0.08169
G1 F720 X104.493 Y81.780 E0.08109
G1 F720 X103.484 Y81.628 E0.08169
G1 F720 X102.515 Y81.329 E0.08118
G1 F720 X101.601 Y80.889 E0.08121
G1 F720 X100.762 Y80.316 E0.08133
G1 F720 X100.013 Y79.623 E0.08169
G1 F720 X99.381 Y78.830 E0.08118
G1 F720 X98.873 Y77.950 E0.08134
G1 F720 X98.502 Y77.005 E0.08127
G1 F720 X98.276 Y76.011 E0.08160
G1 F720 X98.200 Y75.000 E0.08116
G1 F720 X98.276 Y73.988 E0.08124
G1 F720 X98.502 Y72.994 E0.08160
G1 F720 X98.873 Y72.049 E0.08127
G1 F720 X99.381 Y71.169 E0.08134
G1 F720 X100.013 Y70.376 E0.08118
G1 F720 X100.762 Y69.683 E0.08169
G1 F720 X101.601 Y69.110 E0.08133
G1 F720 X102.515 Y68.670 E0.08121
G1 F720 X103.484 Y68.371 E0.08118
G1 F720 X104.493 Y68.219 E0.08169
G1 F720 X105.506 Y68.219 E0.08109
G1 F720 X106.515 Y68.371 E0.08169
G1 F720 X107.484 Y68.670 E0.08118
G1 F720 X108.399 Y69.110 E0.08128
G1 F720 X109.237 Y69.683 E0.08127
G1 F720 X109.986 Y70.376 E0.08169
G1 F12000 X109.490 Y70.680 
;TYPE:FILL
G1 F1980 X100.686 Y79.484 E0.99673
G1 F12000 X100.980 Y79.755 
G1 F1980 X109.752 Y70.983 E0.99311
G1 F12000 X110.003 Y71.298 
G1 F1980 X101.297 Y80.004 E0.98563
G1 F12000 X101.633 Y80.234 
G1 F1980 X110.236 Y71.631 E0.97397
G1 F12000 X110.443 Y71.990 
G1 F1980 X101.981 Y80.451 E0.95795
G1 F12000 X102.363 Y80.635 
G1 F1980 X110.643 Y72.356 E0.93735
G1 F12000 X110.802 Y72.761 
G1 F1980 X102.748 Y80.815 E0.91182
G1 F12000 X103.181 Y80.949 
G1 F1980 X110.962 Y73.168 E0.88091
G1 F12000 X111.066 Y73.629 
G1 F1980 X103.613 Y81.082 E0.84378
G1 F12000 X104.105 Y81.156 
G1 F1980 X111.169 Y74.092 E0.79974
G1 F12000 X111.208 Y74.618 
G1 F1980 X104.607 Y81.220 E0.74738
G1 F12000 X105.172 Y81.220 
G1 F1980 X111.225 Y75.168 E0.68522
G1 F12000 X111.179 Y75.779 
G1 F1980 X105.786 Y81.172 E0.61056
G1 F12000 X106.467 Y81.057 
G1 F1980 X111.040 Y76.484 E0.51772
G1 F12000 X110.771 Y77.319 
G1 F1200 X107.291 Y80.798 E0.39393
G1 F12000 X108.546 Y80.109 
G1 F1200 X110.168 Y78.487 E0.18363
G1 F12000 X109.196 Y70.408 
G1 F1980 X100.397 Y79.207 E0.99616
G1 F12000 X100.146 Y78.892 
G1 F1980 X108.902 Y70.136 E0.99129
G1 F12000 X108.569 Y69.904 
G1 F1980 X99.895 Y78.577 E0.98195
G1 F12000 X99.680 Y78.227 
G1 F1980 X108.233 Y69.674 E0.96831
G1 F12000 X107.867 Y69.475 
G1 F1980 X99.473 Y77.868 E0.95025
G1 F12000 X99.291 Y77.484 
G1 F1980 X107.484 Y69.292 E0.92750
G1 F12000 X107.080 Y69.131 
G1 F1980 X99.132 Y77.078 E0.89976
G1 F12000 X98.994 Y76.650 
G1 F1980 X106.647 Y68.997 E0.86642
G1 F12000 X106.191 Y68.887 
G1 F1980 X98.890 Y76.189 E0.82663
G1 F12000 X98.813 Y75.700 
G1 F1980 X105.699 Y68.814 E0.77959
G1 F12000 X105.169 Y68.778 
G1 F1980 X98.773 Y75.174 E0.72411
G1 F12000 X98.791 Y74.591 
G1 F1980 X104.603 Y68.778 E0.65805
G1 F12000 X103.950 Y68.866 
G1 F1980 X98.855 Y73.961 E0.57682
G1 F12000 X99.022 Y73.228 
G1 F1980 X103.210 Y69.041 E0.47408
G1 F12000 X102.281 Y69.403 
G1 F1200 X99.369 Y72.316 E0.32973
;LAYER:4 height:1.100
G1 F12000 X99.234 Y72.226 Z1.100 
; Suppressed Tool Node -T start 72.27087931450511 T finish 91.33483930326875 ; Tool Node duration: 19.063959988763585
;TYPE:WALL-INNER
G1 F900 X99.715 Y71.392 E0.07707
G1 F900 X100.308 Y70.648 E0.07616
G1 F900 X101.009 Y69.998 E0.07653
G1 F900 X101.801 Y69.458 E0.07674
G1 F900 X102.665 Y69.042 E0.07677
G1 F900 X103.575 Y68.761 E0.07624
G1 F900 X104.520 Y68.619 E0.07650
G1 F900 X105.479 Y68.619 E0.07677
G1 F900 X106.424 Y68.761 E0.07650
G1 F900 X107.334 Y69.042 E0.07624
G1 F900 X108.204 Y69.461 E0.07730
G1 F900 X108.985 Y69.994 E0.07569
G1 F900 X109.691 Y70.648 E0.07704
G1 F900 X110.284 Y71.392 E0.07616
G1 F900 X110.765 Y72.226 E0.07707
G1 F900 X111.114 Y73.112 E0.07623
G1 F900 X111.326 Y74.047 E0.07675
G1 F900 X111.399 Y75.000 E0.07651
G1 F900 X111.327 Y75.952 E0.07643
G1 F900 X111.114 Y76.887 E0.07677
G1 F900 X110.765 Y77.773 E0.07623
G1 F900 X110.284 Y78.607 E0.07707
G1 F900 X109.691 Y79.351 E0.07616
G1 F900 X108.985 Y80.005 E0.07704
G1 F900 X108.204 Y80.538 E0.07569
G1 F900 X107.334 Y80.957 E0.07730
G1 F900 X106.424 Y81.238 E0.07624
G1 F900 X105.479 Y81.380 E0.07650
G1 F900 X104.520 Y81.380 E0.07677
G1 F900 X103.575 Y81.238 E0.07650
G1 F900 X102.665 Y80.957 E0.07624
G1 F900 X101.801 Y80.541 E0.07677
G1 F900 X101.009 Y80.001 E0.07674
G1 F900 X100.308 Y79.351 E0.07653
G1 F900 X99.715 Y78.607 E0.07616
G1 F900 X99.234 Y77.773 E0.07707
G1 F900 X98.885 Y76.887 E0.07623
G1 F900 X98.673 Y75.952 E0.07675
G1 F900 X98.601 Y75.000 E0.07643
G1 F900 X98.673 Y74.047 E0.07651
G1 F900 X98.885 Y73.112 E0.07675
G1 F900 X99.234 Y72.226 E0.07623
G1 F12000 X98.873 Y72.049 
;TYPE:WALL-OUTER
G1 F780 X99.381 Y71.169 E0.08134
G1 F780 X100.013 Y70.376 E0.08118
G1 F780 X100.762 Y69.683 E0.08169
G1 F780 X101.601 Y69.110 E0.08133
G1 F780 X102.515 Y68.670 E0.08121
G1 F780 X103.484 Y68.371 E0.08118
G1 F780 X104.493 Y68.219 E0.08169
G1 F780 X105.506 Y68.219 E0.08109
G1 F780 X106.515 Y68.371 E0.08169
G1 F780 X107.484 Y68.670 E0.08118
G1 F780 X108.399 Y69.110 E0.08128
G1 F780 X109.237 Y69.683 E0.08127
G1 F780 X109.986 Y70.376 E0.08169
G1 F780 X110.618 Y71.169 E0.08118
G1 F780 X111.126 Y72.049 E0.08134
G1 F780 X111.497 Y72.994 E0.08127
G1 F780 X111.723 Y73.988 E0.08160
G1 F780 X111.800 Y75.000 E0.08125
G1 F780 X111.723 Y76.011 E0.08117
G1 F780 X111.497 Y77.005 E0.08160
G1 F780 X111.126 Y77.950 E0.08127
G1 F780 X110.618 Y78.830 E0.08134
G1 F780 X109.986 Y79.623 E0.08118
G1 F780 X109.237 Y80.316 E0.08169
G1 F780 X108.399 Y80.889 E0.08127
G1 F780 X107.484 Y81.329 E0.08128
G1 F780 X106.515 Y81.628 E0.08118
G1 F780 X105.506 Y81.780 E0.08169
G1 F780 X104.493 Y81.780 E0.08109
G1 F780 X103.484 Y81.628 E0.08169
G1 F780 X102.515 Y81.329 E0.08118
G1 F780 X101.601 Y80.889 E0.08121
G1 F780 X100.762 Y80.316 E0.08133
G1 F780 X100.013 Y79.623 E0.08169
G1 F780 X99.381 Y78.830 E0.08118
G1 F780 X98.873 Y77.950 E0.08134
G1 F780 X98.502 Y77.005 E0.08127
G1 F780 X98.276 Y76.011 E0.08160
G1 F780 X98.200 Y75.000 E0.08116
G1 F780 X98.276 Y73.988 E0.08124
G1 F780 X98.502 Y72.994 E0.08160
G1 F780 X98.873 Y72.049 E0.08127
G1 F12000 X99.143 Y72.182 
G1 F12000 X102.159 Y71.895 
;TYPE:FILL
G1 F2100 X106.361 Y76.097 E0.47572
G1 F12000 X105.796 Y76.098 
G1 F2100 X102.159 Y72.460 E0.41181
G1 F12000 X102.159 Y73.026 
G1 F1200 X105.231 Y76.098 E0.34779
G1 F12000 X104.666 Y76.099 
G1 F1200 X102.159 Y73.592 E0.28383
G1 F12000 X102.159 Y74.157 
G1 F1200 X104.101 Y76.100 E0.21992
G1 F12000 X103.536 Y76.100 
G1 F1200 X102.159 Y74.723 E0.15589
G1 F12000 X102.165 Y75.295 
G1 F1200 X102.961 Y76.091 E0.09012
G1 F12000 X106.926 Y76.096 
G1 F2100 X102.159 Y71.329 E0.53969
G1 F12000 X102.159 Y70.763 
G1 F2100 X107.491 Y76.096 E0.60371
G1 F12000 X107.839 Y75.878 
G1 F2100 X102.350 Y70.388 E0.62148
G1 F12000 X102.915 Y70.388 
G1 F2100 X107.817 Y75.290 E0.55497
G1 F12000 X107.817 Y74.724 
G1 F2100 X103.481 Y70.388 E0.49089
G1 F12000 X104.047 Y70.388 
G1 F2100 X107.817 Y74.159 E0.42687
G1 F12000 X107.817 Y73.593 
G1 F1200 X104.612 Y70.388 E0.36285
G1 F12000 X105.178 Y70.388 
G1 F1200 X107.817 Y73.027 E0.29877
G1 F12000 X107.817 Y72.462 
G1 F1200 X105.744 Y70.388 E0.23475
G1 F12000 X106.309 Y70.388 
G1 F1200 X107.817 Y71.896 E0.17073
G1 F12000 X107.817 Y71.330 
G1 F1200 X106.875 Y70.388 E0.10665
G1 F12000 X107.441 Y70.388 
G1 F1200 X107.817 Y70.765 E0.04262
G1 F12000 X107.343 Y71.422 
;TYPE:SKIN
G1 F1800 X111.215 Y75.294 E0.43836
G1 F12000 X111.176 Y75.821 
G1 F1800 X107.342 Y71.987 E0.43406
G1 F12000 X107.341 Y72.551 
G1 F1800 X111.084 Y76.294 E0.42376
G1 F12000 X110.978 Y76.755 
G1 F1800 X107.340 Y73.116 E0.41193
G1 F12000 X107.339 Y73.681 
G1 F840 X110.829 Y77.171 E0.39511
G1 F12000 X110.669 Y77.577 
G1 F840 X107.338 Y74.246 E0.37711
G1 F12000 X107.337 Y74.810 
G1 F840 X110.478 Y77.951 E0.35560
G1 F12000 X110.271 Y78.309 
G1 F840 X107.336 Y75.375 E0.33222
G1 F12000 X107.012 Y75.616 
G1 F840 X110.045 Y78.650 E0.34343
G1 F12000 X109.794 Y78.964 
G1 F840 X106.447 Y75.617 E0.37892
G1 F12000 X105.882 Y75.617 
G1 F1800 X109.537 Y79.273 E0.41385
G1 F12000 X109.243 Y79.545 
G1 F1800 X105.317 Y75.618 E0.44453
G1 F12000 X104.752 Y75.619 
G1 F1800 X108.949 Y79.816 E0.47516
G1 F12000 X108.623 Y80.056 
G1 F1800 X104.187 Y75.620 E0.50221
G1 F12000 X103.622 Y75.620 
G1 F1800 X108.287 Y80.286 E0.52820
G1 F12000 X107.927 Y80.492 
G1 F1800 X103.056 Y75.620 E0.55152
G1 F12000 X102.651 Y75.215 
G1 F840 X99.506 Y72.070 E0.35606
G1 F12000 X99.713 Y71.711 
G1 F840 X102.649 Y74.648 E0.33245
G1 F12000 X102.648 Y74.081 
G1 F840 X99.935 Y71.368 E0.30715
G1 F12000 X99.316 Y72.446 
G1 F1800 X107.545 Y80.675 E0.93163
G1 F12000 X107.149 Y80.844 
G1 F1800 X99.157 Y72.853 E0.90474
G1 F12000 X99.011 Y73.272 
G1 F1800 X106.717 Y80.979 E0.87248
G1 F12000 X106.271 Y81.098 
G1 F1800 X98.906 Y73.733 E0.83381
G1 F12000 X98.819 Y74.212 
G1 F1800 X105.779 Y81.172 E0.78796
G1 F12000 X105.261 Y81.219 
G1 F1800 X98.779 Y74.737 E0.73385
G1 F12000 X98.782 Y75.306 
G1 F1800 X104.695 Y81.219 E0.66943
G1 F12000 X104.058 Y81.148 
G1 F1800 X98.829 Y75.919 E0.59199
G1 F12000 X98.994 Y76.649 
G1 F1800 X103.344 Y80.999 E0.49248
G1 F12000 X102.460 Y80.681 
G1 F840 X99.309 Y77.530 E0.35673
G1 F12000 X100.305 Y79.092 
G1 F840 X100.824 Y79.611 E0.05876
G1 F12000 X102.647 Y73.514 
G1 F840 X100.187 Y71.054 E0.27850
G1 F12000 X100.440 Y70.742 
G1 F840 X102.645 Y72.946 E0.24958
G1 F12000 X102.643 Y72.379 
G1 F840 X100.735 Y70.470 E0.21607
G1 F12000 X101.028 Y70.198 
G1 F840 X102.642 Y71.812 E0.18273
G1 F12000 X102.640 Y71.245 
G1 F840 X101.353 Y69.957 E0.14576
G1 F12000 X101.689 Y69.727 
G1 F840 X102.830 Y70.869 E0.12923
G1 F12000 X103.395 Y70.869 
G1 F840 X102.045 Y69.518 E0.15289
G1 F12000 X102.427 Y69.334 
G1 F840 X103.961 Y70.869 E0.17373
G1 F12000 X104.527 Y70.869 
G1 F840 X102.820 Y69.162 E0.19325
G1 F12000 X103.252 Y69.028 
G1 F840 X105.093 Y70.869 E0.20843
G1 F12000 X105.658 Y70.869 
G1 F840 X103.695 Y68.905 E0.22229
G1 F12000 X104.186 Y68.831 
G1 F840 X106.224 Y70.869 E0.23073
G1 F12000 X106.790 Y70.869 
G1 F840 X104.700 Y68.779 E0.23662
G1 F12000 X105.266 Y68.779 
G1 F1800 X111.217 Y74.731 E0.67379
G1 F12000 X111.171 Y74.118 
G1 F1800 X105.897 Y68.844 E0.59709
G1 F12000 X106.602 Y68.983 
G1 F1800 X111.014 Y73.396 E0.49955
G1 F12000 X110.711 Y72.527 
G1 F840 X109.120 Y70.937 E0.18008 ;Remainder pre close towards end  MORE REM
G1 F840 X107.468 Y69.285 B0.38 ; Start of overwrite close towards end  PROC MORE START
G1 F12000 X108.837 Y70.088 
G1 F840 X109.835 Y71.086 B0 ;  PROC LESS
G1 F840 X108.837 Y70.088 B0 ;  PROC LESS
G1 F840 X109.835 Y71.086 B0 ;  PROC LESS
;LAYER:5 height:1.300
G1 F12000 X107.385 Y70.868 Z1.300 
; Suppressed Tool Node -T start 91.33483930326875 T finish 101.40208326871848 ; Tool Node duration: 10.067243965449787
;TYPE:WALL-INNER
M109
G0 B1
G1 F480 X107.384 Y73.308 E0.49533
G1 F480 X107.377 Y75.656 E0.18797
G1 F480 X104.948 Y75.657 E0.19445
G1 F480 X103.059 Y75.662 E0.15122
G1 F480 X102.870 Y75.625 E0.01542
G1 F480 X102.791 Y75.588 E0.00698
G1 F480 X102.720 Y75.532 E0.00724
G1 F480 X102.677 Y75.477 E0.00559
G1 F480 X102.612 Y75.320 E0.01360
G1 F480 X102.600 Y70.829 E0.35952
G1 F480 X107.384 Y70.829 E0.38298
G1 F480 X107.385 Y70.868 E0.00312
G1 F12000 X107.785 Y70.868 
;TYPE:WALL-OUTER
G1 F420 X107.778 Y75.429 E0.36513
G1 F420 X107.800 Y75.429 E0.00176
G1 F420 X107.800 Y76.056 E0.05019
G1 F420 X103.019 Y76.062 E0.38274
G1 F420 X102.749 Y76.009 E0.02203
G1 F420 X102.578 Y75.930 E0.01508
G1 F420 X102.435 Y75.817 E0.01459
G1 F420 X102.327 Y75.679 E0.01403
G1 F420 X102.222 Y75.423 E0.02215
G1 F420 X102.200 Y75.239 E0.01483
G1 F420 X102.200 Y70.429 E0.38506
G1 F420 X107.779 Y70.429 E0.44662
G1 F420 X107.785 Y70.868 E0.03515
G1 F12000 X107.223 Y71.250 
;TYPE:FILL
G1 F1140 X102.987 Y75.485 E0.47951
G1 F12000 X102.770 Y75.137 
G1 F1140 X106.919 Y70.988 E0.46972
G1 F12000 X106.353 Y70.988 
G1 F1140 X102.769 Y74.572 E0.40576
G1 F12000 X102.768 Y74.008 
G1 F1140 X105.788 Y70.988 E0.34190
G1 F12000 X105.222 Y70.988 
G1 F1140 X102.766 Y73.444 E0.27805
G1 F12000 X102.765 Y72.880 
G1 F1140 X104.656 Y70.988 E0.21414
G1 F12000 X104.091 Y70.988 
G1 F1140 X102.763 Y72.315 E0.15029
G1 F12000 X102.762 Y71.751 
G1 F1140 X103.525 Y70.988 E0.08638
G1 F12000 X102.959 Y70.988 
G1 F1140 X102.761 Y71.187 E0.02247
G1 F12000 X103.538 Y75.501 
G1 F1140 X107.222 Y71.817 E0.41708
G1 F12000 X107.221 Y72.383 
G1 F1140 X104.104 Y75.500 E0.35289
G1 F12000 X104.670 Y75.499 
G1 F1140 X107.220 Y72.950 E0.28864
G1 F12000 X107.219 Y73.517 
G1 F1140 X105.237 Y75.499 E0.22439
G1 F12000 X105.803 Y75.498 
G1 F1140 X107.218 Y74.083 E0.16020
G1 F12000 X107.217 Y74.649 
G1 F1140 X106.370 Y75.497 E0.09595
G1 F12000 X106.937 Y75.496 
G1 F1140 X107.216 Y75.217 E0.03159
;LAYER:6 height:1.500
G1 F12000 X107.353 Y75.685 Z1.500 
; Suppressed Tool Node -T start 101.40208326871848 T finish 111.26979712855281 ; Tool Node duration: 9.867713859834367
;TYPE:WALL-INNER
G1 F480 X103.058 Y75.696 E0.34383
G1 F480 X102.916 Y75.669 E0.01157
G1 F480 X102.808 Y75.623 E0.00940
G1 F480 X102.722 Y75.556 E0.00873
G1 F480 X102.659 Y75.473 E0.00834
G1 F480 X102.617 Y75.370 E0.00890
G1 F480 X102.600 Y75.241 E0.01042
G1 F480 X102.600 Y70.829 E0.35320
G1 F480 X107.361 Y70.829 E0.38114
G1 F480 X107.367 Y71.412 E0.04667
G1 F480 X107.368 Y71.681 E0.02153
G1 F480 X107.353 Y75.685 E0.32054
G1 F12000 X107.753 Y75.429 
;TYPE:WALL-OUTER
G1 F420 X107.800 Y75.429 E0.00376
G1 F420 X107.800 Y76.084 E0.05244
G1 F420 X103.021 Y76.096 E0.38258
G1 F420 X102.797 Y76.054 E0.01824
G1 F420 X102.604 Y75.972 E0.01679
G1 F420 X102.435 Y75.840 E0.01717
G1 F420 X102.309 Y75.675 E0.01662
G1 F420 X102.227 Y75.468 E0.01782
G1 F420 X102.200 Y75.272 E0.01584
G1 F420 X102.200 Y70.429 E0.38770
G1 F420 X107.756 Y70.429 E0.44478
G1 F420 X107.767 Y71.411 E0.07862
G1 F420 X107.768 Y71.682 E0.02169
G1 F420 X107.753 Y75.429 E0.29996
G1 F12000 X107.193 Y75.232 
;TYPE:FILL
G1 F1140 X102.950 Y70.989 E0.48036
G1 F12000 X102.759 Y71.364 
G1 F1140 X106.921 Y75.526 E0.47119
G1 F12000 X106.357 Y75.527 
G1 F1140 X102.759 Y71.929 E0.40734
G1 F12000 X102.759 Y72.495 
G1 F1140 X105.793 Y75.528 E0.34343
G1 F12000 X105.228 Y75.530 
G1 F1140 X102.759 Y73.061 E0.27952
G1 F12000 X102.759 Y73.626 
G1 F1140 X104.664 Y75.531 E0.21567
G1 F12000 X104.100 Y75.533 
G1 F1140 X102.759 Y74.192 E0.15182
G1 F12000 X102.759 Y74.758 
G1 F1140 X103.535 Y75.534 E0.08785
G1 F12000 X102.941 Y75.505 
G1 F1140 X102.777 Y75.341 E0.01857
G1 F12000 X103.516 Y70.989 
G1 F1140 X107.195 Y74.668 E0.41651
G1 F12000 X107.196 Y74.104 
G1 F1140 X104.081 Y70.989 E0.35266
G1 F12000 X104.647 Y70.989 
G1 F1140 X107.197 Y73.539 E0.28869
G1 F12000 X107.198 Y72.974 
G1 F1140 X105.213 Y70.989 E0.22473
G1 F12000 X105.778 Y70.989 
G1 F1140 X107.199 Y72.409 E0.16082
G1 F12000 X107.200 Y71.845 
G1 F1140 X106.344 Y70.989 E0.09691
G1 F12000 X106.910 Y70.989 
G1 F1140 X107.202 Y71.281 E0.03306
;LAYER:7 height:1.700
G1 F12000 X107.308 Y71.476 Z1.700 
; Suppressed Tool Node -T start 111.26979712855281 T finish 121.14995725335442 ; Tool Node duration: 9.880160124801598
;TYPE:WALL-INNER
G1 F480 X107.322 Y74.850 E0.27010
G1 F480 X107.322 Y75.721 E0.06973
G1 F480 X106.223 Y75.719 E0.08798
G1 F480 X103.060 Y75.730 E0.25321
G1 F480 X102.888 Y75.706 E0.01390
G1 F480 X102.805 Y75.671 E0.00721
G1 F480 X102.727 Y75.610 E0.00793
G1 F480 X102.660 Y75.520 E0.00898
G1 F480 X102.619 Y75.418 E0.00880
G1 F480 X102.600 Y75.272 E0.01179
G1 F480 X102.600 Y70.829 E0.35568
G1 F480 X107.317 Y70.829 E0.37761
G1 F480 X107.308 Y71.476 E0.05180
G1 F12000 X107.708 Y71.478 
;TYPE:WALL-OUTER
G1 F420 X107.723 Y75.429 E0.31629
G1 F420 X107.800 Y75.429 E0.00616
G1 F420 X107.799 Y76.122 E0.05548
G1 F420 X106.224 Y76.119 E0.12608
G1 F420 X103.020 Y76.130 E0.25649
G1 F420 X102.790 Y76.100 E0.01857
G1 F420 X102.601 Y76.020 E0.01643
G1 F420 X102.438 Y75.892 E0.01659
G1 F420 X102.309 Y75.718 E0.01734
G1 F420 X102.228 Y75.517 E0.01735
G1 F420 X102.200 Y75.302 E0.01736
G1 F420 X102.200 Y70.429 E0.39010
G1 F420 X107.722 Y70.429 E0.44206
G1 F420 X107.708 Y71.478 E0.08398
G1 F12000 X107.154 Y71.319 
;TYPE:FILL
G1 F1140 X102.924 Y75.549 E0.47889
G1 F12000 X102.759 Y75.148 
G1 F1140 X106.919 Y70.988 E0.47097
G1 F12000 X106.353 Y70.988 
G1 F1140 X102.759 Y74.582 E0.40689
G1 F12000 X102.759 Y74.017 
G1 F1140 X105.788 Y70.988 E0.34292
G1 F12000 X105.222 Y70.988 
G1 F1140 X102.759 Y73.451 E0.27884
G1 F12000 X102.759 Y72.885 
G1 F1140 X104.656 Y70.988 E0.21477
G1 F12000 X104.091 Y70.988 
G1 F1140 X102.759 Y72.320 E0.15080
G1 F12000 X102.759 Y71.754 
G1 F1140 X103.525 Y70.988 E0.08672
G1 F12000 X102.959 Y70.988 
G1 F1140 X102.759 Y71.188 E0.02264
G1 F12000 X103.470 Y75.569 
G1 F1140 X107.154 Y71.884 E0.41713
G1 F12000 X107.155 Y72.449 
G1 F1140 X104.036 Y75.568 E0.35311
G1 F12000 X104.603 Y75.567 
G1 F1140 X107.156 Y73.014 E0.28903
G1 F12000 X107.156 Y73.580 
G1 F1140 X105.170 Y75.565 E0.22478
G1 F12000 X105.737 Y75.564 
G1 F1140 X107.157 Y74.145 E0.16071
G1 F12000 X107.157 Y74.710 
G1 F1140 X106.304 Y75.563 E0.09657
G1 F12000 X106.871 Y75.562 
G1 F1140 X107.158 Y75.275 E0.03249
;LAYER:8 height:1.900
G1 F12000 X107.256 Y73.129 Z1.900 
; Suppressed Tool Node -T start 121.14995725335442 T finish 131.01422561961422 ; Tool Node duration: 9.864268366259825
;TYPE:WALL-INNER
G1 F480 X107.251 Y75.774 E0.21174
G1 F480 X103.801 Y75.769 E0.27619
G1 F480 X103.026 Y75.771 E0.06204
G1 F480 X102.893 Y75.758 E0.01070
G1 F480 X102.806 Y75.721 E0.00757
G1 F480 X102.726 Y75.658 E0.00815
G1 F480 X102.660 Y75.569 E0.00887
G1 F480 X102.620 Y75.469 E0.00862
G1 F480 X102.600 Y75.314 E0.01251
G1 F480 X102.600 Y70.829 E0.35904
G1 F480 X107.256 Y70.829 E0.37273
G1 F480 X107.257 Y70.919 E0.00721
G1 F480 X107.249 Y71.476 E0.04459
G1 F480 X107.256 Y73.129 E0.13233
G1 F12000 X107.656 Y73.130 
;TYPE:WALL-OUTER
G1 F420 X107.652 Y75.429 E0.18404
G1 F420 X107.800 Y75.429 E0.01185
G1 F420 X107.800 Y76.067 E0.05107
G1 F420 X107.799 Y76.175 E0.00865
G1 F420 X103.009 Y76.171 E0.38346
G1 F420 X102.792 Y76.150 E0.01745
G1 F420 X102.600 Y76.068 E0.01671
G1 F420 X102.438 Y75.941 E0.01648
G1 F420 X102.309 Y75.769 E0.01721
G1 F420 X102.228 Y75.566 E0.01750
G1 F420 X102.200 Y75.342 E0.01807
G1 F420 X102.200 Y70.429 E0.39330
G1 F420 X107.653 Y70.429 E0.43653
G1 F420 X107.657 Y70.925 E0.03971
G1 F420 X107.649 Y71.478 E0.04427
G1 F420 X107.656 Y73.130 E0.13225
G1 F12000 X107.093 Y72.869 
;TYPE:FILL
G1 F1140 X105.213 Y70.989 E0.21284
G1 F12000 X105.778 Y70.989 
G1 F1140 X107.094 Y72.304 E0.14893
G1 F12000 X107.094 Y71.739 
G1 F1140 X106.344 Y70.989 E0.08491
G1 F12000 X106.910 Y70.989 
G1 F1140 X107.095 Y71.174 E0.02094
G1 F12000 X107.092 Y73.434 
G1 F1140 X104.647 Y70.989 E0.27681
G1 F12000 X104.081 Y70.989 
G1 F1140 X107.092 Y73.999 E0.34083
G1 F12000 X107.091 Y74.564 
G1 F1140 X103.516 Y70.989 E0.40474
G1 F12000 X102.950 Y70.989 
G1 F1140 X107.089 Y75.128 E0.46859
G1 F12000 X107.009 Y75.613 
G1 F1140 X102.759 Y71.364 E0.48110
G1 F12000 X102.759 Y71.929 
G1 F1140 X106.443 Y75.613 E0.41708
G1 F12000 X105.877 Y75.613 
G1 F1140 X102.759 Y72.495 E0.35300
G1 F12000 X102.759 Y73.061 
G1 F1140 X105.310 Y75.612 E0.28881
G1 F12000 X104.745 Y75.612 
G1 F1140 X102.759 Y73.626 E0.22484
G1 F12000 X102.759 Y74.192 
G1 F1140 X104.178 Y75.611 E0.16065
G1 F12000 X103.612 Y75.610 
G1 F1140 X102.759 Y74.758 E0.09651
G1 F12000 X102.761 Y75.325 
G1 F1140 X103.046 Y75.610 E0.03227
;LAYER:9 height:2.100
G1 F12000 X102.600 Y75.362 Z2.100 
; Suppressed Tool Node -T start 131.01422561961422 T finish 141.89089876069542 ; Tool Node duration: 10.876673141081177
;TYPE:WALL-INNER
G1 F480 X102.600 Y70.829 E0.36288
G1 F480 X107.186 Y70.829 E0.36713
G1 F480 X107.190 Y71.371 E0.04339
G1 F480 X107.191 Y71.803 E0.03458
G1 F480 X107.179 Y75.829 E0.32230
G1 F480 X107.400 Y75.829 E0.01769
G1 F480 X103.061 Y75.842 E0.34735
G1 F480 X102.894 Y75.808 E0.01364
G1 F480 X102.805 Y75.770 E0.00775
G1 F480 X102.727 Y75.709 E0.00793
G1 F480 X102.660 Y75.619 E0.00898
G1 F480 X102.619 Y75.516 E0.00887
G1 F480 X102.600 Y75.362 E0.01242
G1 F12000 X102.812 Y76.199 
;TYPE:WALL-OUTER
G1 F420 X102.786 Y76.197 E0.00209
G1 F420 X102.603 Y76.120 E0.01589
G1 F420 X102.436 Y75.988 E0.01704
G1 F420 X102.309 Y75.818 E0.01699
G1 F420 X102.229 Y75.616 E0.01739
G1 F420 X102.200 Y75.387 E0.01848
G1 F420 X102.200 Y70.429 E0.39691
G1 F420 X107.583 Y70.429 E0.43093
G1 F420 X107.590 Y71.370 E0.07533
G1 F420 X107.591 Y71.804 E0.03474
G1 F420 X107.580 Y75.429 E0.29020
G1 F420 X107.800 Y75.429 E0.01761
G1 F420 X107.800 Y76.229 E0.06404
G1 F420 X103.020 Y76.242 E0.38266
G1 F420 X102.812 Y76.199 E0.01700
G1 F12000 X103.223 Y75.815 
;TYPE:FILL
G1 F1140 X104.462 Y74.577 E0.14021
G1 F12000 X104.658 Y74.380 
G1 F1140 X107.024 Y72.015 E0.26781
G1 F12000 X107.023 Y72.581 
G1 F1140 X103.523 Y76.081 E0.39625
G1 F12000 X104.091 Y76.079 
G1 F1140 X107.022 Y73.148 E0.33183
G1 F12000 X107.021 Y73.715 
G1 F1140 X104.658 Y76.077 E0.26747
G1 F12000 X105.226 Y76.075 
G1 F1140 X107.020 Y74.281 E0.20310
G1 F12000 X107.019 Y74.848 
G1 F1140 X105.793 Y76.074 E0.13880
G1 F12000 X106.361 Y76.071 
G1 F1140 X107.018 Y75.415 E0.07432
G1 F12000 X107.017 Y75.981 
G1 F1140 X106.929 Y76.069 E0.00996
G1 F12000 X106.929 Y75.930 
G1 F12000 X104.658 Y73.814 
G1 F1140 X107.024 Y71.448 E0.26786
G1 F12000 X106.918 Y70.989 
G1 F1140 X104.658 Y73.249 E0.25586
G1 F12000 X104.658 Y72.683 
G1 F1140 X106.353 Y70.989 E0.19184
G1 F12000 X105.787 Y70.989 
G1 F1140 X104.658 Y72.117 E0.12776
G1 F12000 X104.658 Y71.552 
G1 F1140 X105.221 Y70.989 E0.06374
G1 F12000 X103.896 Y74.577 
G1 F1140 X102.861 Y75.612 E0.11718
G1 F12000 X102.759 Y75.148 
G1 F1140 X103.330 Y74.577 E0.06464
G1 F12000 X103.417 Y75.056 
;TYPE:SKIN
G1 F840 X105.139 Y73.334 E0.19495
G1 F12000 X105.139 Y72.769 
G1 F840 X102.851 Y75.056 E0.25898
G1 F12000 X102.759 Y74.582 
G1 F840 X105.139 Y72.203 E0.26939
G1 F12000 X105.139 Y71.637 
G1 F840 X102.759 Y74.017 E0.26945
G1 F12000 X102.759 Y73.451 
G1 F840 X105.139 Y71.072 E0.26939
G1 F12000 X104.656 Y70.989 
G1 F840 X102.759 Y72.885 E0.21471
G1 F12000 X102.759 Y72.320 
G1 F840 X104.090 Y70.989 E0.15069
G1 F12000 X103.524 Y70.989 
G1 F840 X102.759 Y71.754 E0.08661
G1 F12000 X102.759 Y71.188 
G1 F840 X102.958 Y70.989 E0.02253
G1 F12000 X105.139 Y73.900 
G1 F840 X103.982 Y75.057 E0.13099
G1 F12000 X104.547 Y75.057 
G1 F840 X105.139 Y74.466 E0.06697
;LAYER:10 height:2.300
G1 F12000 X105.100 Y75.017 Z2.300 
; Suppressed Tool Node -T start 141.89089876069542 T finish 151.17443311399123 ; Tool Node duration: 9.283534353295872
;TYPE:WALL-INNER
G1 F480 X105.100 Y70.829 E0.33527
G1 F480 X107.078 Y70.829 E0.15835
G1 F480 X107.071 Y71.477 E0.05188
G1 F480 X107.080 Y74.258 E0.22263
G1 F480 X107.080 Y75.829 E0.12576
G1 F480 X107.400 Y75.829 E0.02562
G1 F480 X107.400 Y75.905 E0.00608
G1 F480 X106.044 Y75.904 E0.10855
G1 F480 X103.052 Y75.915 E0.23952
G1 F480 X102.912 Y75.891 E0.01137
G1 F480 X102.821 Y75.851 E0.00796
G1 F480 X102.736 Y75.780 E0.00887
G1 F480 X102.664 Y75.678 E0.00999
G1 F480 X102.619 Y75.567 E0.00959
G1 F480 X102.600 Y75.419 E0.01195
G1 F480 X102.600 Y75.016 E0.03226
G1 F480 X105.100 Y75.017 E0.20013
G1 F12000 X104.700 Y74.617 
;TYPE:WALL-OUTER
G1 F420 X104.700 Y71.029 E0.28723
G1 F420 X102.200 Y71.029 E0.20013
G1 F420 X102.200 Y70.429 E0.04803
G1 F420 X107.480 Y70.429 E0.42268
G1 F420 X107.481 Y70.550 E0.00969
G1 F420 X107.471 Y71.478 E0.07429
G1 F420 X107.481 Y75.429 E0.31629
G1 F420 X107.800 Y75.429 E0.02554
G1 F420 X107.800 Y75.985 E0.04451
G1 F420 X107.793 Y76.305 E0.02562
G1 F420 X103.015 Y76.315 E0.38250
G1 F420 X102.801 Y76.279 E0.01737
G1 F420 X102.607 Y76.193 E0.01699
G1 F420 X102.438 Y76.052 E0.01762
G1 F420 X102.311 Y75.872 E0.01764
G1 F420 X102.228 Y75.666 E0.01778
G1 F420 X102.200 Y75.448 E0.01760
G1 F420 X102.200 Y74.617 E0.06652
G1 F420 X104.700 Y74.617 E0.20013
G1 F12000 X104.875 Y75.177 
;TYPE:FILL
G1 F1140 X105.447 Y75.748 E0.06470
G1 F12000 X106.011 Y75.747 
G1 F1140 X105.259 Y74.995 E0.08514
G1 F12000 X105.259 Y74.429 
G1 F1140 X106.576 Y75.746 E0.14910
G1 F12000 X106.919 Y75.523 
G1 F1140 X105.259 Y73.863 E0.18793
G1 F12000 X105.259 Y73.297 
G1 F1140 X106.919 Y74.958 E0.18799
G1 F12000 X106.918 Y74.391 
G1 F1140 X105.259 Y72.732 E0.18782
G1 F12000 X105.259 Y72.166 
G1 F1140 X106.918 Y73.825 E0.18782
G1 F12000 X106.917 Y73.259 
G1 F1140 X105.259 Y71.600 E0.18776
G1 F12000 X105.259 Y71.035 
G1 F1140 X106.917 Y72.693 E0.18771
G1 F12000 X106.916 Y72.127 
G1 F1140 X105.778 Y70.988 E0.12889
G1 F12000 X106.343 Y70.988 
G1 F1140 X106.915 Y71.560 E0.06476
G1 F12000 X105.041 Y74.957 
G1 F12000 X104.310 Y75.177 
G1 F1140 X104.883 Y75.750 E0.06487
G1 F12000 X104.318 Y75.751 
G1 F1140 X103.743 Y75.176 E0.06510
G1 F12000 X103.178 Y75.176 
G1 F1140 X103.753 Y75.752 E0.06515
G1 F12000 X103.189 Y75.753 
G1 F1140 X102.758 Y75.323 E0.04874
;LAYER:11 height:2.500
G1 F12000 X102.600 Y75.487 Z2.500 
; Suppressed Tool Node -T start 151.17443311399123 T finish 160.4166717700171 ; Tool Node duration: 9.242238656025847
;TYPE:WALL-INNER
G1 F480 X102.600 Y75.074 E0.03306
G1 F480 X105.100 Y75.074 E0.20013
G1 F480 X105.100 Y70.829 E0.33983
G1 F480 X106.956 Y70.829 E0.14858
G1 F480 X106.957 Y71.102 E0.02185
G1 F480 X106.952 Y71.476 E0.02994
G1 F480 X106.956 Y72.583 E0.08862
G1 F480 X106.954 Y75.829 E0.25985
G1 F480 X107.400 Y75.829 E0.03570
G1 F480 X107.399 Y75.984 E0.01241
G1 F480 X103.877 Y75.983 E0.28195
G1 F480 X103.060 Y75.986 E0.06540
G1 F480 X102.894 Y75.968 E0.01337
G1 F480 X102.821 Y75.936 E0.00638
G1 F480 X102.735 Y75.864 E0.00898
G1 F480 X102.667 Y75.769 E0.00935
G1 F480 X102.620 Y75.643 E0.01077
G1 F480 X102.600 Y75.487 E0.01259
G1 F12000 X102.200 Y75.513 
;TYPE:WALL-OUTER
G1 F420 X102.200 Y74.674 E0.06717
G1 F420 X104.700 Y74.674 E0.20013
G1 F420 X104.700 Y71.029 E0.29180
G1 F420 X102.200 Y71.029 E0.20013
G1 F420 X102.200 Y70.429 E0.04803
G1 F420 X107.354 Y70.429 E0.41260
G1 F420 X107.357 Y71.107 E0.05428
G1 F420 X107.352 Y71.478 E0.02970
G1 F420 X107.355 Y75.429 E0.31629
G1 F420 X107.800 Y75.429 E0.03562
G1 F420 X107.800 Y75.944 E0.04123
G1 F420 X107.789 Y76.384 E0.03523
G1 F420 X103.021 Y76.386 E0.38170
G1 F420 X102.793 Y76.360 E0.01837
G1 F420 X102.607 Y76.278 E0.01627
G1 F420 X102.440 Y76.138 E0.01745
G1 F420 X102.311 Y75.957 E0.01779
G1 F420 X102.229 Y75.741 E0.01850
G1 F420 X102.200 Y75.513 E0.01840
G1 F12000 X102.800 Y75.673 
;TYPE:FILL
G1 F1140 X103.239 Y75.234 E0.04970
G1 F12000 X103.805 Y75.234 
G1 F1140 X103.213 Y75.825 E0.06697
G1 F12000 X103.779 Y75.825 
G1 F1140 X104.371 Y75.234 E0.06697
G1 F12000 X104.936 Y75.234 
G1 F1140 X104.344 Y75.825 E0.06697
G1 F12000 X104.910 Y75.825 
G1 F1140 X106.795 Y73.941 E0.21335
G1 F12000 X106.795 Y73.375 
G1 F1140 X105.259 Y74.911 E0.17390
G1 F12000 X105.259 Y74.345 
G1 F1140 X106.795 Y72.810 E0.17384
G1 F12000 X106.795 Y72.243 
G1 F1140 X105.259 Y73.780 E0.17395
G1 F12000 X105.259 Y73.214 
G1 F1140 X106.795 Y71.678 E0.17390
G1 F12000 X106.795 Y71.112 
G1 F1140 X105.259 Y72.648 E0.17390
G1 F12000 X105.259 Y72.083 
G1 F1140 X106.353 Y70.988 E0.12391
G1 F12000 X105.788 Y70.988 
G1 F1140 X105.259 Y71.517 E0.05989
G1 F12000 X106.794 Y74.507 
G1 F1140 X105.476 Y75.825 E0.14921
G1 F12000 X106.042 Y75.825 
G1 F1140 X106.794 Y75.073 E0.08514
G1 F12000 X106.794 Y75.639 
G1 F1140 X106.608 Y75.825 E0.02106
;LAYER:12 height:2.700
G1 F12000 X106.813 Y75.829 Z2.700 
; Suppressed Tool Node -T start 160.4166717700171 T finish 169.67100309911115 ; Tool Node duration: 9.254331329093977
;TYPE:WALL-INNER
G1 F480 X107.400 Y75.829 E0.04699
G1 F480 X107.394 Y76.077 E0.01986
G1 F480 X104.208 Y76.080 E0.25505
G1 F480 X103.063 Y76.083 E0.09166
G1 F480 X102.945 Y76.057 E0.00967
G1 F480 X102.893 Y76.053 E0.00418
G1 F480 X102.821 Y76.020 E0.00634
G1 F480 X102.735 Y75.949 E0.00893
G1 F480 X102.667 Y75.854 E0.00935
G1 F480 X102.621 Y75.733 E0.01036
G1 F480 X102.600 Y75.549 E0.01483
G1 F480 X102.600 Y75.132 E0.03338
G1 F480 X103.823 Y75.131 E0.09791
G1 F480 X105.100 Y75.133 E0.10223
G1 F480 X105.100 Y70.829 E0.34455
G1 F480 X106.809 Y70.829 E0.13681
G1 F480 X106.807 Y71.276 E0.03578
G1 F480 X106.813 Y75.829 E0.36449
G1 F12000 X107.212 Y75.429 
;TYPE:WALL-OUTER
G1 F420 X107.800 Y75.429 E0.04707
G1 F420 X107.781 Y76.477 E0.08391
G1 F420 X103.020 Y76.483 E0.38114
G1 F420 X102.887 Y76.454 E0.01090
G1 F420 X102.791 Y76.447 E0.00771
G1 F420 X102.609 Y76.364 E0.01601
G1 F420 X102.440 Y76.223 E0.01762
G1 F420 X102.311 Y76.042 E0.01779
G1 F420 X102.230 Y75.829 E0.01824
G1 F420 X102.200 Y75.571 E0.02079
G1 F420 X102.200 Y74.732 E0.06717
G1 F420 X104.700 Y74.732 E0.20013
G1 F420 X104.700 Y71.029 E0.29644
G1 F420 X102.200 Y71.029 E0.20013
G1 F420 X102.200 Y70.429 E0.04803
G1 F420 X107.211 Y70.429 E0.40115
G1 F420 X107.207 Y71.277 E0.06789
G1 F420 X107.212 Y75.429 E0.33238
G1 F12000 X106.652 Y75.256 
;TYPE:FILL
G1 F1140 X105.259 Y73.863 E0.15771
G1 F12000 X105.259 Y74.429 
G1 F1140 X106.652 Y75.822 E0.15771
G1 F12000 X106.182 Y75.918 
G1 F1140 X105.259 Y74.995 E0.10450
G1 F12000 X104.991 Y75.293 
G1 F1140 X105.617 Y75.919 E0.07087
G1 F12000 X105.052 Y75.919 
G1 F1140 X104.426 Y75.293 E0.07087
G1 F12000 X103.859 Y75.292 
G1 F1140 X104.487 Y75.920 E0.07110
G1 F12000 X103.922 Y75.921 
G1 F1140 X103.294 Y75.292 E0.07115
G1 F12000 X102.758 Y75.323 
G1 F1140 X103.357 Y75.922 E0.06781
G1 F12000 X105.041 Y75.073 
G1 F12000 X105.259 Y73.297 
G1 F1140 X106.651 Y74.690 E0.15765
G1 F12000 X106.650 Y74.123 
G1 F1140 X105.259 Y72.732 E0.15748
G1 F12000 X105.259 Y72.166 
G1 F1140 X106.650 Y73.557 E0.15748
G1 F12000 X106.649 Y72.991 
G1 F1140 X105.259 Y71.600 E0.15742
G1 F12000 X105.259 Y71.035 
G1 F1140 X106.649 Y72.425 E0.15737
G1 F12000 X106.648 Y71.859 
G1 F1140 X105.778 Y70.989 E0.09850
G1 F12000 X106.344 Y70.989 
G1 F1140 X106.647 Y71.292 E0.03430
;LAYER:13 height:2.900
G1 F12000 X106.607 Y71.478 Z2.900 
; Suppressed Tool Node -T start 169.67100309911115 T finish 178.8049679689952 ; Tool Node duration: 9.133964869884151
;TYPE:WALL-INNER
G1 F480 X106.613 Y75.829 E0.34831
G1 F480 X107.400 Y75.829 E0.06300
G1 F480 X107.400 Y76.187 E0.02866
G1 F480 X106.239 Y76.188 E0.09294
G1 F480 X103.058 Y76.197 E0.25465
G1 F480 X102.931 Y76.173 E0.01035
G1 F480 X102.834 Y76.125 E0.00866
G1 F480 X102.742 Y76.045 E0.00976
G1 F480 X102.667 Y75.939 E0.01039
G1 F480 X102.621 Y75.817 E0.01044
G1 F480 X102.600 Y75.637 E0.01451
G1 F480 X102.600 Y75.189 E0.03586
G1 F480 X104.424 Y75.188 E0.14602
G1 F480 X105.100 Y75.198 E0.05412
G1 F480 X105.100 Y70.829 E0.34976
G1 F480 X106.610 Y70.829 E0.12088
G1 F480 X106.607 Y71.478 E0.05196
G1 F12000 X107.007 Y71.479 
;TYPE:WALL-OUTER
G1 F420 X107.012 Y75.429 E0.31621
G1 F420 X107.800 Y75.429 E0.06308
G1 F420 X107.800 Y76.229 E0.06404
G1 F420 X107.773 Y76.587 E0.02874
G1 F420 X103.021 Y76.597 E0.38042
G1 F420 X102.805 Y76.556 E0.01760
G1 F420 X102.610 Y76.461 E0.01736
G1 F420 X102.441 Y76.312 E0.01804
G1 F420 X102.312 Y76.129 E0.01792
G1 F420 X102.230 Y75.914 E0.01842
G1 F420 X102.200 Y75.658 E0.02063
G1 F420 X102.200 Y74.789 E0.06957
G1 F420 X104.430 Y74.788 E0.17852
G1 F420 X104.700 Y74.792 E0.02162
G1 F420 X104.700 Y71.029 E0.30124
G1 F420 X102.200 Y71.029 E0.20013
G1 F420 X102.200 Y70.429 E0.04803
G1 F420 X107.011 Y70.429 E0.38514
G1 F420 X107.007 Y71.479 E0.08406
G1 F12000 X106.448 Y71.459 
;TYPE:FILL
G1 F1140 X105.259 Y72.648 E0.13461
G1 F12000 X105.259 Y72.083 
G1 F1140 X106.353 Y70.988 E0.12391
G1 F12000 X105.788 Y70.988 
G1 F1140 X105.259 Y71.517 E0.05989
G1 F12000 X106.449 Y72.024 
G1 F1140 X105.259 Y73.214 E0.13472
G1 F12000 X105.259 Y73.780 
G1 F1140 X106.449 Y72.590 E0.13472
G1 F12000 X106.449 Y73.155 
G1 F1140 X105.259 Y74.345 E0.13472
G1 F12000 X105.259 Y74.911 
G1 F1140 X106.450 Y73.720 E0.13484
G1 F12000 X106.450 Y74.285 
G1 F1140 X104.702 Y76.033 E0.19790
G1 F12000 X105.269 Y76.032 
G1 F1140 X106.451 Y74.850 E0.13382
G1 F12000 X106.452 Y75.415 
G1 F1140 X105.836 Y76.030 E0.06968
G1 F12000 X104.812 Y75.358 
G1 F1140 X104.135 Y76.035 E0.07665
G1 F12000 X103.568 Y76.036 
G1 F1140 X104.248 Y75.356 E0.07698
G1 F12000 X103.685 Y75.353 
G1 F1140 X103.013 Y76.025 E0.07608
G1 F12000 X102.768 Y75.704 
G1 F1140 X103.123 Y75.350 E0.04013
;LAYER:14 height:3.100
G1 F12000 X102.600 Y75.739 Z3.100 
; Suppressed Tool Node -T start 178.8049679689952 T finish 188.22068516688896 ; Tool Node duration: 9.415717197893702
;TYPE:WALL-INNER
G1 F480 X102.600 Y75.273 E0.03731
G1 F480 X105.100 Y75.274 E0.20013
G1 F480 X105.100 Y70.829 E0.35584
G1 F480 X106.388 Y70.829 E0.10311
G1 F480 X106.391 Y71.361 E0.04259
G1 F480 X106.390 Y71.478 E0.00937
G1 F480 X106.392 Y71.816 E0.02706
G1 F480 X106.383 Y75.829 E0.32126
G1 F480 X107.400 Y75.829 E0.08141
G1 F480 X107.389 Y76.299 E0.03764
G1 F480 X103.042 Y76.313 E0.34800
G1 F480 X102.923 Y76.295 E0.00963
G1 F480 X102.837 Y76.254 E0.00763
G1 F480 X102.754 Y76.178 E0.00901
G1 F480 X102.673 Y76.054 E0.01186
G1 F480 X102.621 Y75.907 E0.01248
G1 F480 X102.600 Y75.739 E0.01355
G1 F12000 X102.200 Y75.764 
;TYPE:WALL-OUTER
G1 F420 X102.200 Y74.874 E0.07125
G1 F420 X104.700 Y74.874 E0.20013
G1 F420 X104.700 Y71.029 E0.30781
G1 F420 X102.200 Y71.029 E0.20013
G1 F420 X102.200 Y70.429 E0.04803
G1 F420 X106.785 Y70.429 E0.36705
G1 F420 X106.791 Y71.364 E0.07485
G1 F420 X106.790 Y71.479 E0.00921
G1 F420 X106.792 Y71.817 E0.02706
G1 F420 X106.784 Y75.429 E0.28916
G1 F420 X107.800 Y75.429 E0.08133
G1 F420 X107.783 Y76.559 E0.09047
G1 F420 X107.766 Y76.700 E0.01137
G1 F420 X103.016 Y76.713 E0.38026
G1 F420 X102.800 Y76.680 E0.01749
G1 F420 X102.612 Y76.589 E0.01672
G1 F420 X102.447 Y76.440 E0.01780
G1 F420 X102.312 Y76.233 E0.01978
G1 F420 X102.229 Y76.001 E0.01973
G1 F420 X102.200 Y75.764 E0.01911
G1 F12000 X102.797 Y75.927 
;TYPE:FILL
G1 F1140 X103.017 Y76.147 E0.02491
G1 F12000 X103.586 Y76.151 
G1 F1140 X102.869 Y75.433 E0.08123
G1 F12000 X103.434 Y75.433 
G1 F1140 X104.151 Y76.149 E0.08112
G1 F12000 X104.714 Y76.147 
G1 F1140 X104.000 Y75.433 E0.08083
G1 F12000 X104.566 Y75.433 
G1 F1140 X105.278 Y76.145 E0.08061
G1 F12000 X105.842 Y76.144 
G1 F1140 X105.131 Y75.433 E0.08049
G1 F12000 X105.259 Y74.995 
G1 F1140 X106.222 Y75.958 E0.10902
G1 F12000 X106.253 Y75.989 
G1 F1140 X106.612 Y76.065 E0.01719
G1 F1140 X106.970 Y76.140 E0.02928
G1 F12000 X106.223 Y75.393 
G1 F1140 X105.259 Y74.429 E0.10914
G1 F12000 X105.259 Y73.863 
G1 F1140 X106.224 Y74.828 E0.10925
G1 F12000 X106.225 Y74.263 
G1 F1140 X105.259 Y73.297 E0.10936
G1 F12000 X105.259 Y72.732 
G1 F1140 X106.225 Y73.698 E0.10936
G1 F12000 X106.226 Y73.133 
G1 F1140 X105.259 Y72.166 E0.10948
G1 F12000 X105.259 Y71.600 
G1 F1140 X106.227 Y72.568 E0.10959
G1 F12000 X106.227 Y72.003 
G1 F1140 X105.259 Y71.035 E0.10959
G1 F12000 X105.778 Y70.989 
G1 F1140 X106.228 Y71.438 E0.05089
G1 F1140 X106.017 Y71.511 E0.02377
G1 F1140 X106.122 Y72.181 E0.02362
G1 F1140 X106.123 Y72.747 E0.02345
G1 F1140 X106.123 Y73.313 E0.02333
G1 F1140 X106.122 Y73.878 E0.02307
G1 F1140 X106.122 Y74.444 E0.02300
G1 F1140 X106.122 Y75.010 E0.02288
G1 F1140 X106.122 Y75.575 E0.02262
G1 F1140 X106.133 Y75.869 E0.02355
;LAYER:15 height:3.300
G1 F12000 X106.063 Y75.829 Z3.300 
; Suppressed Tool Node -T start 188.22068516688896 T finish 197.6949952376992 ; Tool Node duration: 9.474310070810342
;TYPE:WALL-INNER
G1 F480 X107.399 Y75.829 E0.10695
G1 F480 X107.383 Y76.442 E0.04909
G1 F480 X104.055 Y76.437 E0.26642
G1 F480 X103.045 Y76.440 E0.08085
G1 F480 X102.921 Y76.422 E0.01003
G1 F480 X102.838 Y76.381 E0.00741
G1 F480 X102.754 Y76.305 E0.00907
G1 F480 X102.676 Y76.185 E0.01146
G1 F480 X102.622 Y76.031 E0.01306
G1 F480 X102.600 Y75.839 E0.01547
G1 F480 X102.600 Y75.362 E0.03819
G1 F480 X105.100 Y75.362 E0.20013
G1 F480 X105.100 Y70.829 E0.36288
G1 F480 X106.062 Y70.829 E0.07701
G1 F480 X106.052 Y71.476 E0.05180
G1 F480 X106.069 Y74.522 E0.24385
G1 F480 X106.063 Y75.829 E0.10463
G1 F12000 X106.465 Y75.429 
;TYPE:WALL-OUTER
G1 F420 X107.800 Y75.429 E0.10687
G1 F420 X107.779 Y76.579 E0.09208
G1 F420 X107.748 Y76.843 E0.02128
G1 F420 X103.015 Y76.840 E0.37889
G1 F420 X102.801 Y76.808 E0.01732
G1 F420 X102.615 Y76.717 E0.01658
G1 F420 X102.445 Y76.564 E0.01831
G1 F420 X102.314 Y76.363 E0.01921
G1 F420 X102.231 Y76.123 E0.02033
G1 F420 X102.200 Y75.859 E0.02128
G1 F420 X102.200 Y74.962 E0.07181
G1 F420 X104.700 Y74.962 E0.20013
G1 F420 X104.700 Y71.029 E0.31485
G1 F420 X102.200 Y71.029 E0.20013
G1 F420 X102.200 Y70.429 E0.04803
G1 F420 X106.468 Y70.429 E0.34167
G1 F420 X106.452 Y71.478 E0.08399
G1 F420 X106.469 Y74.524 E0.24385
G1 F420 X106.465 Y75.429 E0.07245
G1 F12000 X106.445 Y75.988 
;TYPE:FILL
G1 F1140 X106.025 Y76.124 E0.03322
G1 F1140 X105.586 Y76.281 E0.03732
G1 F12000 X105.020 Y76.281 
G1 F1140 X105.900 Y75.401 E0.09963
G1 F12000 X105.900 Y74.835 
G1 F1140 X105.259 Y75.477 E0.07263
G1 F12000 X105.214 Y75.521 
G1 F1140 X104.455 Y76.281 E0.08599
G1 F12000 X103.890 Y76.280 
G1 F1140 X104.648 Y75.521 E0.08587
G1 F12000 X104.083 Y75.521 
G1 F1140 X103.324 Y76.280 E0.08593
G1 F12000 X102.862 Y76.177 
G1 F1140 X103.517 Y75.521 E0.07421
G1 F12000 X102.951 Y75.521 
G1 F1140 X102.759 Y75.714 E0.02179
G1 F12000 X105.041 Y75.303 
G1 F12000 X105.259 Y74.911 
G1 F1140 X105.899 Y74.270 E0.07251
G1 F12000 X105.899 Y73.705 
G1 F1140 X105.259 Y74.345 E0.07246
G1 F12000 X105.259 Y73.780 
G1 F1140 X105.899 Y73.139 E0.07251
G1 F12000 X105.899 Y72.574 
G1 F1140 X105.259 Y73.214 E0.07246
G1 F12000 X105.259 Y72.648 
G1 F1140 X105.899 Y72.008 E0.07246
G1 F12000 X105.899 Y71.443 
G1 F1140 X105.259 Y72.083 E0.07246
G1 F12000 X105.259 Y71.517 
G1 F1140 X105.788 Y70.988 E0.05989
G1 F12000 X106.123 Y75.770 
G1 F12000 X107.010 Y75.988 
G1 F1140 X106.717 Y76.281 E0.03317
G1 F12000 X105.900 Y75.401 
;TYPE:SKIN
G1 F840 X105.513 Y75.505 E0.04363
G1 F840 X105.704 Y74.748 E0.04406
G1 F840 X105.702 Y74.185 E0.04428
G1 F840 X105.700 Y73.621 E0.04459
G1 F840 X105.698 Y73.057 E0.04504
G1 F840 X105.696 Y72.494 E0.04541
G1 F840 X105.694 Y71.929 E0.04591
G1 F840 X105.697 Y71.361 E0.04615
G1 F840 X105.788 Y70.988 E0.03074
;LAYER:16 height:3.500
G1 F12000 X105.528 Y71.470 Z3.500 
; Suppressed Tool Node -T start 197.6949952376992 T finish 206.91570244480369 ; Tool Node duration: 9.220707207104464
;TYPE:WALL-INNER
G1 F480 X105.569 Y74.253 E0.22281
G1 F480 X105.556 Y75.829 E0.12617
G1 F480 X107.400 Y75.829 E0.14762
G1 F480 X107.400 Y76.200 E0.02970
G1 F480 X107.366 Y76.589 E0.03126
G1 F480 X103.058 Y76.608 E0.34488
G1 F480 X102.952 Y76.586 E0.00867
G1 F480 X102.860 Y76.535 E0.00842
G1 F480 X102.755 Y76.435 E0.01161
G1 F480 X102.677 Y76.313 E0.01159
G1 F480 X102.624 Y76.161 E0.01289
G1 F480 X102.600 Y75.938 E0.01796
G1 F480 X102.600 Y75.450 E0.03907
G1 F480 X103.842 Y75.449 E0.09943
G1 F480 X105.100 Y75.451 E0.10071
G1 F480 X105.100 Y70.829 E0.37001
G1 F480 X105.556 Y70.829 E0.03650
G1 F480 X105.528 Y71.470 E0.05136
G1 F12000 X105.928 Y71.476 
;TYPE:WALL-OUTER
G1 F420 X105.969 Y74.256 E0.22257
G1 F420 X105.959 Y75.429 E0.09391
G1 F420 X107.800 Y75.429 E0.14738
G1 F420 X107.800 Y76.229 E0.06404
G1 F420 X107.744 Y76.866 E0.05119
G1 F420 X107.719 Y76.988 E0.00997
G1 F420 X103.021 Y77.008 E0.37610
G1 F420 X102.811 Y76.964 E0.01718
G1 F420 X102.620 Y76.858 E0.01749
G1 F420 X102.447 Y76.695 E0.01903
G1 F420 X102.314 Y76.489 E0.01963
G1 F420 X102.231 Y76.249 E0.02033
G1 F420 X102.200 Y75.961 E0.02319
G1 F420 X102.200 Y75.050 E0.07293
G1 F420 X104.700 Y75.050 E0.20013
G1 F420 X104.700 Y71.029 E0.32190
G1 F420 X102.200 Y71.029 E0.20013
G1 F420 X102.200 Y70.429 E0.04803
G1 F420 X105.965 Y70.429 E0.30140
G1 F420 X105.968 Y70.543 E0.00913
G1 F420 X105.928 Y71.476 E0.07476
G1 F12000 X105.368 Y71.710 
;TYPE:FILL
G1 F1140 X105.320 Y71.378 E0.01229
G1 F1140 X105.259 Y71.035 E0.02789
G1 F12000 X105.259 Y72.166 
G1 F1140 X105.315 Y72.505 E0.01272
G1 F1140 X105.317 Y73.072 E0.01305
G1 F1140 X105.318 Y73.640 E0.01353
G1 F1140 X105.320 Y74.207 E0.01384
G1 F1140 X105.322 Y74.775 E0.01421
G1 F1140 X105.323 Y75.342 E0.01452
G1 F1140 X105.539 Y75.841 E0.01502
G1 F1140 X106.193 Y76.211 E0.05038
G1 F1140 X106.757 Y76.210 E0.05000
G1 F1140 X107.222 Y76.392 E0.03997
G1 F12000 X105.569 Y76.436 
G1 F1140 X104.743 Y75.610 E0.09351
G1 F12000 X104.178 Y75.610 
G1 F1140 X105.006 Y76.438 E0.09374
G1 F12000 X104.443 Y76.441 
G1 F1140 X103.612 Y75.610 E0.09408
G1 F12000 X103.046 Y75.610 
G1 F1140 X103.879 Y76.443 E0.09431
G1 F12000 X103.316 Y76.446 
G1 F1140 X102.758 Y75.888 E0.06317
G1 F12000 X105.259 Y75.560 
;TYPE:SKIN
G1 F840 X105.393 Y75.412 E0.01546
G1 F840 X105.323 Y74.776 E0.01498
G1 F840 X105.321 Y74.208 E0.01444
G1 F840 X105.319 Y73.641 E0.01407
G1 F840 X105.317 Y73.073 E0.01364
G1 F840 X105.316 Y72.506 E0.01316
G1 F840 X105.314 Y71.938 E0.01285
G1 F840 X105.320 Y71.378 E0.01244
G1 F840 X105.259 Y71.035 E0.02789
;LAYER:17 height:3.700
G1 F12000 X105.100 Y71.035 Z3.700 
G1 F12000 X105.038 Y75.502 
G1 F12000 X104.470 Y75.537 
; Suppressed Tool Node -T start 206.91570244480369 T finish 214.9196206478229 ; Tool Node duration: 8.003918203019122
;TYPE:WALL-INNER
G1 F480 X105.000 Y75.564 E0.04248
G1 F480 X105.000 Y75.829 E0.02121
G1 F480 X107.400 Y75.829 E0.19213
G1 F480 X107.393 Y76.411 E0.04659
G1 F480 X107.353 Y76.768 E0.02876
G1 F480 X104.931 Y76.767 E0.19389
G1 F480 X103.065 Y76.776 E0.14938
G1 F480 X102.937 Y76.754 E0.01040
G1 F480 X102.866 Y76.715 E0.00648
G1 F480 X102.773 Y76.620 E0.01064
G1 F480 X102.683 Y76.465 E0.01435
G1 F480 X102.622 Y76.287 E0.01506
G1 F480 X102.600 Y76.082 E0.01651
G1 F480 X102.600 Y75.538 E0.04355
G1 F480 X104.470 Y75.537 E0.14970
G1 F12000 X104.470 Y75.137 
;TYPE:WALL-OUTER
G1 F420 X104.700 Y75.148 E0.01843
G1 F420 X104.700 Y71.029 E0.32974
G1 F420 X102.200 Y71.029 E0.20013
G1 F420 X102.200 Y70.429 E0.04803
G1 F420 X105.400 Y70.429 E0.25617
G1 F420 X105.400 Y75.429 E0.40027
G1 F420 X107.800 Y75.429 E0.19213
G1 F420 X107.800 Y76.222 E0.06348
G1 F420 X107.793 Y76.431 E0.01674
G1 F420 X107.694 Y77.117 E0.05549
G1 F420 X107.680 Y77.168 E0.00423
G1 F420 X104.932 Y77.167 E0.21999
G1 F420 X103.022 Y77.176 E0.15290
G1 F420 X102.806 Y77.138 E0.01756
G1 F420 X102.622 Y77.037 E0.01680
G1 F420 X102.452 Y76.863 E0.01947
G1 F420 X102.316 Y76.628 E0.02174
G1 F420 X102.231 Y76.379 E0.02106
G1 F420 X102.200 Y76.098 E0.02263
G1 F420 X102.200 Y75.138 E0.07685
G1 F420 X104.470 Y75.137 E0.18172
G1 F12000 X104.474 Y75.696 
;TYPE:FILL
G1 F1140 X103.555 Y76.615 E0.10404
G1 F12000 X103.002 Y76.602 
G1 F1140 X103.908 Y75.696 E0.10257
G1 F12000 X103.342 Y75.697 
G1 F1140 X102.781 Y76.257 E0.06346
G1 F12000 X104.122 Y76.614 
G1 F1140 X104.839 Y75.897 E0.08117
G1 F12000 X105.313 Y75.988 
G1 F1140 X104.688 Y76.613 E0.07076
G1 F12000 X105.255 Y76.612 
G1 F1140 X105.879 Y75.988 E0.07065
G1 F12000 X106.445 Y75.988 
G1 F1140 X105.822 Y76.611 E0.07053
G1 F12000 X106.389 Y76.610 
G1 F1140 X107.010 Y75.988 E0.07036
G1 F12000 X107.232 Y76.332 
G1 F1140 X106.956 Y76.608 E0.03125
G1 F12000 X105.059 Y75.770 
G1 F12000 X105.139 Y75.031 
;TYPE:SKIN
G1 F840 X104.899 Y74.988 E0.02723
G1 F840 X105.019 Y74.303 E0.02700
G1 F840 X105.019 Y73.737 E0.02707
G1 F840 X105.019 Y73.171 E0.02707
G1 F840 X105.019 Y72.606 E0.02703
G1 F840 X105.019 Y72.040 E0.02707
G1 F840 X105.019 Y71.474 E0.02707
G1 F840 X104.977 Y70.950 E0.02704
G1 F840 X104.733 Y70.628 E0.02272
G1 F840 X104.067 Y70.728 E0.02264
G1 F840 X103.501 Y70.728 E0.02266
G1 F840 X102.935 Y70.728 E0.02266
G1 F840 X102.553 Y70.829 E0.03163
;LAYER:18 height:3.900
G1 F12000 X105.100 Y70.829 Z3.900 
; Suppressed Tool Node -T start 214.9196206478229 T finish 223.89836506700894 ; Tool Node duration: 8.978744419186008
;TYPE:WALL-INNER
G1 F480 X105.200 Y70.829 E0.00801
G1 F480 X105.200 Y75.829 E0.40027
G1 F480 X107.400 Y75.829 E0.17612
G1 F480 X107.393 Y76.386 E0.04459
G1 F480 X107.312 Y76.958 E0.04625
G1 F480 X103.828 Y76.961 E0.27891
G1 F480 X103.066 Y76.965 E0.06100
G1 F480 X102.949 Y76.937 E0.00963
G1 F480 X102.865 Y76.891 E0.00767
G1 F480 X102.775 Y76.800 E0.01025
G1 F480 X102.687 Y76.647 E0.01413
G1 F480 X102.623 Y76.440 E0.01735
G1 F480 X102.600 Y76.227 E0.01715
G1 F480 X102.600 Y75.659 E0.04547
G1 F480 X105.100 Y75.660 E0.20013
G1 F480 X105.100 Y70.829 E0.38674
G1 F12000 X104.700 Y71.029 
;TYPE:WALL-OUTER
G1 F420 X102.200 Y71.029 E0.20013
G1 F420 X102.200 Y70.429 E0.04803
G1 F420 X105.600 Y70.429 E0.27218
G1 F420 X105.600 Y75.429 E0.40027
G1 F420 X107.800 Y75.429 E0.17612
G1 F420 X107.800 Y76.221 E0.06340
G1 F420 X107.792 Y76.418 E0.01578
G1 F420 X107.695 Y77.106 E0.05562
G1 F420 X107.621 Y77.358 E0.02103
G1 F420 X103.023 Y77.365 E0.36809
G1 F420 X102.801 Y77.313 E0.01825
G1 F420 X102.620 Y77.213 E0.01655
G1 F420 X102.453 Y77.043 E0.01908
G1 F420 X102.318 Y76.808 E0.02170
G1 F420 X102.231 Y76.527 E0.02355
G1 F420 X102.200 Y76.242 E0.02295
G1 F420 X102.200 Y75.260 E0.07861
G1 F420 X104.700 Y75.260 E0.20013
G1 F420 X104.700 Y71.029 E0.33871
G1 F12000 X105.000 Y71.029 
G1 F12000 X104.953 Y75.820 
;TYPE:FILL
G1 F1140 X105.039 Y75.906 E0.00974
G1 F12000 X105.122 Y75.989 
G1 F1140 X105.932 Y76.799 E0.09170
G1 F12000 X105.367 Y76.800 
G1 F1140 X104.387 Y75.820 E0.11095
G1 F12000 X103.820 Y75.819 
G1 F1140 X104.803 Y76.801 E0.11123
G1 F12000 X104.238 Y76.802 
G1 F1140 X103.255 Y75.819 E0.11129
G1 F12000 X102.758 Y75.888 
G1 F1140 X103.673 Y76.803 E0.10359
G1 F12000 X103.108 Y76.803 
G1 F1140 X102.809 Y76.505 E0.03379
G1 F12000 X105.687 Y75.989 
G1 F1140 X106.497 Y76.798 E0.09165
G1 F12000 X107.062 Y76.798 
G1 F1140 X106.253 Y75.989 E0.09159
G1 F12000 X106.819 Y75.989 
G1 F1140 X107.229 Y76.399 E0.04642
;LAYER:19 height:4.100
G1 F12000 X107.400 Y76.198 Z4.100 
; Suppressed Tool Node -T start 223.89836506700894 T finish 232.94692015365115 ; Tool Node duration: 9.048555086642313
;TYPE:WALL-INNER
G1 F480 X107.344 Y76.823 E0.05023
G1 F480 X107.253 Y77.186 E0.02996
G1 F480 X106.503 Y77.187 E0.06004
G1 F480 X103.066 Y77.204 E0.27515
G1 F480 X102.980 Y77.184 E0.00707
G1 F480 X102.902 Y77.133 E0.00746
G1 F480 X102.784 Y76.992 E0.01472
G1 F480 X102.685 Y76.821 E0.01582
G1 F480 X102.625 Y76.626 E0.01633
G1 F480 X102.600 Y76.370 E0.02059
G1 F480 X102.600 Y75.782 E0.04707
G1 F480 X105.100 Y75.782 E0.20013
G1 F480 X105.100 Y70.829 E0.39651
G1 F480 X105.400 Y70.829 E0.02402
G1 F480 X105.400 Y75.829 E0.40027
G1 F480 X107.400 Y75.829 E0.16011
G1 F480 X107.400 Y76.198 E0.02954
G1 F12000 X107.800 Y76.222 
;TYPE:WALL-OUTER
G1 F420 X107.741 Y76.888 E0.05352
G1 F420 X107.610 Y77.406 E0.04277
G1 F420 X107.542 Y77.586 E0.01540
G1 F420 X103.022 Y77.604 E0.36185
G1 F420 X102.821 Y77.558 E0.01651
G1 F420 X102.633 Y77.435 E0.01799
G1 F420 X102.454 Y77.222 E0.02227
G1 F420 X102.317 Y76.985 E0.02191
G1 F420 X102.231 Y76.705 E0.02345
G1 F420 X102.200 Y76.389 E0.02542
G1 F420 X102.200 Y75.382 E0.08061
G1 F420 X104.700 Y75.382 E0.20013
G1 F420 X104.700 Y71.029 E0.34847
G1 F420 X102.200 Y71.029 E0.20013
G1 F420 X102.200 Y70.429 E0.04803
G1 F420 X105.800 Y70.429 E0.28819
G1 F420 X105.800 Y75.429 E0.40027
G1 F420 X107.800 Y75.429 E0.16011
G1 F420 X107.800 Y76.222 E0.06348
G1 F12000 X107.225 Y76.339 
;TYPE:FILL
G1 F1140 X106.534 Y77.030 E0.07823
G1 F12000 X105.967 Y77.032 
G1 F1140 X107.010 Y75.989 E0.11808
G1 F12000 X106.444 Y75.989 
G1 F1140 X105.398 Y77.035 E0.11842
G1 F12000 X104.830 Y77.037 
G1 F1140 X105.878 Y75.989 E0.11865
G1 F12000 X105.312 Y75.989 
G1 F1140 X104.262 Y77.039 E0.11887
G1 F12000 X103.694 Y77.042 
G1 F1140 X104.794 Y75.941 E0.12459
G1 F12000 X104.228 Y75.941 
G1 F1140 X103.126 Y77.044 E0.12482
G1 F12000 X102.837 Y76.767 
G1 F1140 X103.663 Y75.941 E0.09351
G1 F12000 X103.097 Y75.941 
G1 F1140 X102.759 Y76.279 E0.03827
;LAYER:20 height:4.300
G1 F12000 X102.600 Y76.539 Z4.300 
; Suppressed Tool Node -T start 232.94692015365115 T finish 242.56443729308364 ; Tool Node duration: 9.61751713943259
;TYPE:WALL-INNER
G1 F480 X102.600 Y75.905 E0.05075
G1 F480 X104.033 Y75.904 E0.11472
G1 F480 X105.100 Y75.906 E0.08542
G1 F480 X105.100 Y70.829 E0.40643
G1 F480 X105.600 Y70.829 E0.04003
G1 F480 X105.600 Y75.829 E0.40027
G1 F480 X107.400 Y75.829 E0.14410
G1 F480 X107.400 Y76.206 E0.03018
G1 F480 X107.363 Y76.673 E0.03750
G1 F480 X107.311 Y76.993 E0.02595
G1 F480 X107.202 Y77.369 E0.03134
G1 F480 X107.171 Y77.446 E0.00664
G1 F480 X103.985 Y77.437 E0.25505
G1 F480 X103.056 Y77.443 E0.07437
G1 F480 X102.974 Y77.426 E0.00670
G1 F480 X102.904 Y77.380 E0.00671
G1 F480 X102.800 Y77.255 E0.01302
G1 F480 X102.693 Y77.035 E0.01958
G1 F480 X102.625 Y76.806 E0.01912
G1 F480 X102.600 Y76.539 E0.02147
G1 F12000 X102.200 Y76.556 
;TYPE:WALL-OUTER
G1 F420 X102.200 Y75.505 E0.08414
G1 F420 X104.700 Y75.505 E0.20013
G1 F420 X104.700 Y71.029 E0.35832
G1 F420 X102.200 Y71.029 E0.20013
G1 F420 X102.200 Y70.429 E0.04803
G1 F420 X106.000 Y70.429 E0.30420
G1 F420 X106.000 Y75.429 E0.40027
G1 F420 X107.800 Y75.429 E0.14410
G1 F420 X107.800 Y76.229 E0.06404
G1 F420 X107.761 Y76.722 E0.03959
G1 F420 X107.703 Y77.078 E0.02887
G1 F420 X107.581 Y77.496 E0.03486
G1 F420 X107.435 Y77.847 E0.03043
G1 F420 X103.986 Y77.837 E0.27611
G1 F420 X103.018 Y77.843 E0.07749
G1 F420 X102.819 Y77.803 E0.01625
G1 F420 X102.636 Y77.683 E0.01752
G1 F420 X102.461 Y77.472 E0.02194
G1 F420 X102.321 Y77.184 E0.02564
G1 F420 X102.231 Y76.882 E0.02523
G1 F420 X102.200 Y76.556 E0.02622
G1 F12000 X102.759 Y76.455 
;TYPE:FILL
G1 F1140 X103.586 Y77.282 E0.09363
G1 F12000 X104.153 Y77.283 
G1 F1140 X102.935 Y76.065 E0.13789
G1 F12000 X103.501 Y76.065 
G1 F1140 X104.719 Y77.283 E0.13789
G1 F12000 X105.285 Y77.283 
G1 F1140 X104.067 Y76.065 E0.13789
G1 F12000 X104.632 Y76.065 
G1 F1140 X105.851 Y77.284 E0.13801
G1 F12000 X106.418 Y77.285 
G1 F1140 X105.198 Y76.065 E0.13812
G1 F12000 X105.439 Y75.741 
G1 F1140 X105.349 Y75.367 E0.02040
G1 F1140 X105.349 Y74.802 E0.02024
G1 F1140 X105.349 Y74.236 E0.02028
G1 F1140 X105.349 Y73.670 E0.02028
G1 F1140 X105.349 Y73.104 E0.02039
G1 F1140 X105.349 Y72.539 E0.02024
G1 F1140 X105.349 Y71.973 E0.02028
G1 F1140 X105.349 Y71.407 E0.02039
G1 F1140 X105.259 Y71.035 E0.03064
G1 F12000 X105.687 Y75.989 
G1 F1140 X106.983 Y77.285 E0.14672
G1 F12000 X107.164 Y76.899 
G1 F1140 X106.253 Y75.989 E0.10308
G1 F12000 X106.819 Y75.989 
G1 F1140 X107.224 Y76.395 E0.04591
;LAYER:21 height:4.500
G1 F12000 X107.396 Y76.335 Z4.500 
; Suppressed Tool Node -T start 242.56443729308364 T finish 252.79385733236924 ; Tool Node duration: 10.229420039285587
;TYPE:WALL-INNER
G1 F480 X107.342 Y76.834 E0.04018
G1 F480 X107.191 Y77.396 E0.04659
G1 F480 X107.033 Y77.749 E0.03096
G1 F480 X103.079 Y77.775 E0.31654
G1 F480 X103.028 Y77.761 E0.00423
G1 F480 X102.951 Y77.697 E0.00802
G1 F480 X102.799 Y77.500 E0.01992
G1 F480 X102.700 Y77.294 E0.01830
G1 F480 X102.626 Y77.012 E0.02334
G1 F480 X102.600 Y76.738 E0.02203
G1 F480 X102.600 Y76.041 E0.05580
G1 F480 X104.260 Y76.041 E0.13289
G1 F480 X105.100 Y76.038 E0.06725
G1 F480 X105.100 Y70.829 E0.41700
G1 F480 X105.800 Y70.829 E0.05604
G1 F480 X105.800 Y75.829 E0.40027
G1 F480 X107.400 Y75.829 E0.12809
G1 F480 X107.396 Y76.335 E0.04051
G1 F12000 X107.800 Y76.222 
;TYPE:WALL-OUTER
G1 F420 X107.738 Y76.905 E0.05490
G1 F420 X107.572 Y77.519 E0.05092
G1 F420 X107.466 Y77.784 E0.02285
G1 F420 X107.276 Y78.148 E0.03287
G1 F420 X103.025 Y78.176 E0.34032
G1 F420 X102.838 Y78.123 E0.01556
G1 F420 X102.649 Y77.966 E0.01967
G1 F420 X102.585 Y77.868 E0.00937
G1 F420 X102.461 Y77.719 E0.01552
G1 F420 X102.322 Y77.433 E0.02546
G1 F420 X102.231 Y77.082 E0.02903
G1 F420 X102.200 Y76.755 E0.02629
G1 F420 X102.200 Y75.641 E0.08918
G1 F420 X104.700 Y75.640 E0.20013
G1 F420 X104.700 Y71.029 E0.36913
G1 F420 X102.200 Y71.029 E0.20013
G1 F420 X102.200 Y70.429 E0.04803
G1 F420 X106.200 Y70.429 E0.32022
G1 F420 X106.200 Y75.429 E0.40027
G1 F420 X107.800 Y75.429 E0.12809
G1 F420 X107.800 Y76.222 E0.06348
G1 F12000 X107.233 Y76.331 
;TYPE:FILL
G1 F1140 X105.968 Y77.596 E0.14321
G1 F12000 X105.399 Y77.600 
G1 F1140 X107.010 Y75.989 E0.18239
G1 F12000 X106.444 Y75.989 
G1 F1140 X104.829 Y77.603 E0.18278
G1 F12000 X104.260 Y77.607 
G1 F1140 X105.878 Y75.989 E0.18318
G1 F12000 X105.638 Y75.663 
G1 F1140 X105.259 Y76.042 E0.04291
G1 F12000 X105.103 Y76.198 
G1 F1140 X103.690 Y77.611 E0.15997
G1 F12000 X103.121 Y77.614 
G1 F1140 X104.537 Y76.198 E0.16031
G1 F12000 X103.971 Y76.199 
G1 F1140 X102.877 Y77.293 E0.12386
G1 F12000 X102.769 Y76.835 
G1 F1140 X103.405 Y76.199 E0.07200
G1 F12000 X102.839 Y76.199 
G1 F1140 X102.759 Y76.279 E0.00906
G1 F12000 X105.041 Y75.979 
G1 F12000 X105.259 Y75.477 
G1 F1140 X105.448 Y75.004 E0.04292
G1 F1140 X105.448 Y74.438 E0.04282
G1 F1140 X105.448 Y73.873 E0.04274
G1 F1140 X105.448 Y73.307 E0.04282
G1 F1140 X105.448 Y72.741 E0.04282
G1 F1140 X105.448 Y72.176 E0.04274
G1 F1140 X105.448 Y71.610 E0.04282
G1 F1140 X105.638 Y71.137 E0.04081
G1 F12000 X105.859 Y75.770 
G1 F12000 X107.129 Y77.001 
G1 F1140 X106.538 Y77.592 E0.06691
;TYPE:SKIN
G1 F840 X106.443 Y77.404 E0.02125
G1 F840 X105.781 Y77.499 E0.02168
G1 F840 X105.214 Y77.501 E0.02213
G1 F840 X104.646 Y77.503 E0.02262
G1 F840 X104.079 Y77.504 E0.02304
G1 F840 X103.511 Y77.506 E0.02353
G1 F840 X103.121 Y77.614 E0.03240
;LAYER:22 height:4.700
G1 F12000 X103.229 Y78.123 Z4.700 
; Suppressed Tool Node -T start 252.79385733236924 T finish 263.65145103852575 ; Tool Node duration: 10.857593706156528
;TYPE:WALL-INNER
G1 F480 X103.085 Y78.124 E0.01153
G1 F480 X103.029 Y78.108 E0.00466
G1 F480 X102.952 Y78.044 E0.00802
G1 F480 X102.827 Y77.854 E0.01821
G1 F480 X102.688 Y77.496 E0.03074
G1 F480 X102.628 Y77.267 E0.01895
G1 F480 X102.600 Y76.936 E0.02659
G1 F480 X102.600 Y76.204 E0.05860
G1 F480 X105.100 Y76.203 E0.20013
G1 F480 X105.100 Y70.829 E0.43021
G1 F480 X106.000 Y70.829 E0.07205
G1 F480 X106.000 Y75.829 E0.40027
G1 F480 X107.400 Y75.829 E0.11208
G1 F480 X107.396 Y76.318 E0.03915
G1 F480 X107.341 Y76.839 E0.04194
G1 F480 X107.183 Y77.417 E0.04797
G1 F480 X107.110 Y77.601 E0.01585
G1 F480 X106.903 Y77.994 E0.03556
G1 F480 X106.814 Y78.121 E0.01241
G1 F480 X105.158 Y78.118 E0.13257
G1 F480 X103.229 Y78.123 E0.15442
G1 F12000 X103.231 Y78.523 
;TYPE:WALL-OUTER
G1 F420 X103.028 Y78.525 E0.01625
G1 F420 X102.838 Y78.469 E0.01586
G1 F420 X102.650 Y78.313 E0.01956
G1 F420 X102.469 Y78.038 E0.02636
G1 F420 X102.308 Y77.622 E0.03571
G1 F420 X102.232 Y77.333 E0.02392
G1 F420 X102.200 Y76.962 E0.02981
G1 F420 X102.200 Y75.804 E0.09270
G1 F420 X104.700 Y75.803 E0.20013
G1 F420 X104.700 Y71.029 E0.38218
G1 F420 X102.200 Y71.029 E0.20013
G1 F420 X102.200 Y70.429 E0.04803
G1 F420 X106.400 Y70.429 E0.33623
G1 F420 X106.400 Y75.429 E0.40027
G1 F420 X107.800 Y75.429 E0.11208
G1 F420 X107.800 Y76.221 E0.06340
G1 F420 X107.796 Y76.338 E0.00937
G1 F420 X107.736 Y76.912 E0.04620
G1 F420 X107.563 Y77.543 E0.05238
G1 F420 X107.474 Y77.767 E0.01930
G1 F420 X107.243 Y78.207 E0.03978
G1 F420 X107.022 Y78.521 E0.03074
G1 F420 X103.231 Y78.523 E0.30348
G1 F12000 X103.135 Y77.962 
;TYPE:FILL
G1 F1140 X103.000 Y77.827 E0.01528
G1 F12000 X103.701 Y77.962 
G1 F1140 X102.766 Y77.027 E0.10585
G1 F12000 X102.758 Y76.454 
G1 F1140 X104.266 Y77.962 E0.17073
G1 F12000 X104.832 Y77.962 
G1 F1140 X103.234 Y76.363 E0.18097
G1 F12000 X103.799 Y76.363 
G1 F1140 X105.397 Y77.961 E0.18091
G1 F12000 X105.962 Y77.960 
G1 F1140 X104.364 Y76.363 E0.18086
G1 F12000 X104.930 Y76.363 
G1 F1140 X106.527 Y77.960 E0.18080
G1 F12000 X106.861 Y77.728 
G1 F1140 X105.259 Y76.126 E0.18137
G1 F12000 X105.259 Y75.560 
G1 F1140 X107.038 Y77.339 E0.20141
G1 F12000 X107.159 Y76.895 
G1 F1140 X106.253 Y75.989 E0.10257
G1 F12000 X106.819 Y75.989 
G1 F1140 X107.226 Y76.396 E0.04608
G1 F12000 X105.839 Y75.574 
G1 F1140 X105.259 Y74.995 E0.06561
G1 F12000 X105.259 Y74.429 
G1 F1140 X105.839 Y75.009 E0.06566
G1 F12000 X105.839 Y74.443 
G1 F1140 X105.259 Y73.863 E0.06566
G1 F12000 X105.259 Y73.297 
G1 F1140 X105.839 Y73.877 E0.06566
G1 F12000 X105.839 Y73.312 
G1 F1140 X105.259 Y72.732 E0.06566
G1 F12000 X105.259 Y72.166 
G1 F1140 X105.839 Y72.746 E0.06566
G1 F12000 X105.839 Y72.180 
G1 F1140 X105.259 Y71.600 E0.06566
G1 F12000 X105.259 Y71.035 
G1 F1140 X105.839 Y71.615 E0.06566
G1 F12000 X105.839 Y71.049 
G1 F1140 X105.778 Y70.988 E0.00691
G1 F12000 X105.719 Y77.718 
;TYPE:SKIN
G1 F840 X106.121 Y77.837 E0.02735
G1 F840 X106.527 Y77.960 E0.03396
G1 F12000 X105.397 Y77.961 
G1 F840 X104.994 Y77.841 E0.02710
G1 F840 X104.430 Y77.843 E0.02675
G1 F840 X103.867 Y77.845 E0.02625
G1 F840 X103.303 Y77.847 E0.02596
G1 F840 X102.997 Y77.824 E0.02457
;LAYER:23 height:4.900
G1 F12000 X102.900 Y78.311 Z4.900 
; Suppressed Tool Node -T start 263.65145103852575 T finish 275.095508728628 ; Tool Node duration: 11.444057690102124
;TYPE:WALL-INNER
G1 F480 X102.828 Y78.203 E0.01039
G1 F480 X102.709 Y77.892 E0.02666
G1 F480 X102.629 Y77.524 E0.03015
G1 F480 X102.600 Y77.165 E0.02883
G1 F480 X102.600 Y76.367 E0.06388
G1 F480 X105.100 Y76.366 E0.20013
G1 F480 X105.100 Y70.829 E0.44326
G1 F480 X106.200 Y70.829 E0.08806
G1 F480 X106.200 Y75.829 E0.40027
G1 F480 X107.400 Y75.829 E0.09606
G1 F480 X107.397 Y76.302 E0.03787
G1 F480 X107.340 Y76.847 E0.04387
G1 F480 X107.176 Y77.436 E0.04895
G1 F480 X107.116 Y77.585 E0.01286
G1 F480 X106.891 Y78.013 E0.03871
G1 F480 X106.635 Y78.370 E0.03517
G1 F480 X106.399 Y78.636 E0.02847
G1 F480 X105.177 Y78.640 E0.09783
G1 F480 X103.138 Y78.668 E0.16325
G1 F480 X103.098 Y78.648 E0.00358
G1 F480 X103.008 Y78.543 E0.01107
G1 F480 X102.900 Y78.311 E0.02049
G1 F12000 X102.550 Y78.507 
;TYPE:WALL-OUTER
G1 F420 X102.472 Y78.389 E0.01132
G1 F420 X102.324 Y78.003 E0.03309
G1 F420 X102.232 Y77.582 E0.03450
G1 F420 X102.200 Y77.188 E0.03165
G1 F420 X102.200 Y75.967 E0.09775
G1 F420 X104.700 Y75.966 E0.20013
G1 F420 X104.700 Y71.029 E0.39523
G1 F420 X102.200 Y71.029 E0.20013
G1 F420 X102.200 Y70.429 E0.04803
G1 F420 X106.600 Y70.429 E0.35224
G1 F420 X106.600 Y75.429 E0.40027
G1 F420 X107.800 Y75.429 E0.09606
G1 F420 X107.800 Y76.222 E0.06348
G1 F420 X107.797 Y76.320 E0.00785
G1 F420 X107.735 Y76.919 E0.04821
G1 F420 X107.554 Y77.567 E0.05386
G1 F420 X107.479 Y77.754 E0.01613
G1 F420 X107.232 Y78.223 E0.04243
G1 F420 X106.949 Y78.617 E0.03883
G1 F420 X106.674 Y78.927 E0.03317
G1 F420 X106.551 Y79.035 E0.01310
G1 F420 X105.180 Y79.040 E0.10975
G1 F420 X103.047 Y79.069 E0.17077
G1 F420 X102.856 Y78.980 E0.01687
G1 F420 X102.670 Y78.763 E0.02288
G1 F420 X102.550 Y78.507 E0.02263
G1 F12000 X103.049 Y78.252 
;TYPE:FILL
G1 F1140 X104.776 Y76.525 E0.19552
G1 F12000 X104.210 Y76.525 
G1 F1140 X102.870 Y77.865 E0.15171
G1 F12000 X102.777 Y77.392 
G1 F1140 X103.644 Y76.526 E0.09810
G1 F12000 X103.078 Y76.526 
G1 F1140 X102.759 Y76.845 E0.03611
G1 F12000 X103.362 Y78.505 
G1 F1140 X106.039 Y75.828 E0.30307
G1 F12000 X106.445 Y75.988 
G1 F1140 X103.934 Y78.499 E0.28428
G1 F12000 X104.505 Y78.493 
G1 F1140 X107.010 Y75.988 E0.28360
G1 F12000 X107.231 Y76.333 
G1 F1140 X105.076 Y78.488 E0.24397
G1 F12000 X105.647 Y78.483 
G1 F1140 X107.130 Y77.000 E0.16790
G1 F12000 X106.716 Y77.979 
G1 F1140 X106.218 Y78.477 E0.05638
G1 F12000 X105.259 Y76.042 
G1 F1140 X106.039 Y75.263 E0.08825
G1 F12000 X106.039 Y74.697 
G1 F1140 X105.259 Y75.476 E0.08825
G1 F12000 X105.259 Y74.910 
G1 F1140 X106.039 Y74.131 E0.08825
G1 F12000 X106.039 Y73.565 
G1 F1140 X105.259 Y74.345 E0.08831
G1 F12000 X105.259 Y73.779 
G1 F1140 X106.039 Y73.000 E0.08825
G1 F12000 X106.039 Y72.434 
G1 F1140 X105.259 Y73.213 E0.08825
G1 F12000 X105.259 Y72.648 
G1 F1140 X106.039 Y71.868 E0.08831
G1 F12000 X106.039 Y71.303 
G1 F1140 X105.259 Y72.082 E0.08825
G1 F12000 X105.259 Y71.516 
G1 F1140 X105.788 Y70.988 E0.05983
G1 F12000 X106.049 Y78.080 
;TYPE:SKIN
G1 F840 X105.565 Y78.282 E0.04555
G1 F840 X104.996 Y78.284 E0.04601
G1 F840 X104.428 Y78.287 E0.04649
G1 F840 X103.859 Y78.290 E0.04715
G1 F840 X103.205 Y78.378 E0.04781
G1 F840 X103.219 Y78.082 E0.02372
G1 F12000 X106.218 Y78.477 
G1 F840 X106.598 Y78.097 E0.04302
;LAYER:24 height:5.100
G1 F12000 X106.881 Y78.027 Z5.100 
; Suppressed Tool Node -T start 275.095508728628 T finish 287.33250737024105 ; Tool Node duration: 12.236998641613262
;TYPE:WALL-INNER
G1 F480 X106.398 Y78.637 E0.06229
G1 F480 X106.055 Y78.934 E0.03632
G1 F480 X105.673 Y79.184 E0.03655
G1 F480 X105.302 Y79.368 E0.03315
G1 F480 X104.884 Y79.509 E0.03531
G1 F480 X104.433 Y79.599 E0.03682
G1 F480 X103.262 Y79.629 E0.09377
G1 F480 X103.224 Y79.587 E0.00453
G1 F480 X103.065 Y79.259 E0.02918
G1 F480 X103.025 Y79.108 E0.01251
G1 F480 X102.857 Y78.746 E0.03195
G1 F480 X102.711 Y78.240 E0.04216
G1 F480 X102.629 Y77.843 E0.03245
G1 F480 X102.600 Y77.447 E0.03179
G1 F480 X102.600 Y76.529 E0.07349
G1 F480 X105.100 Y76.529 E0.20013
G1 F480 X105.100 Y70.829 E0.45631
G1 F480 X106.400 Y70.829 E0.10407
G1 F480 X106.400 Y75.829 E0.40027
G1 F480 X107.400 Y75.829 E0.08005
G1 F480 X107.398 Y76.287 E0.03666
G1 F480 X107.347 Y76.792 E0.04063
G1 F480 X107.324 Y76.937 E0.01175
G1 F480 X107.169 Y77.456 E0.04336
G1 F480 X106.881 Y78.027 E0.05120
G1 F12000 X107.219 Y78.242 
;TYPE:WALL-OUTER
G1 F420 X106.898 Y78.677 E0.04328
G1 F420 X106.681 Y78.921 E0.02614
G1 F420 X106.294 Y79.256 E0.04098
G1 F420 X105.872 Y79.532 E0.04037
G1 F420 X105.460 Y79.737 E0.03684
G1 F420 X104.981 Y79.898 E0.04045
G1 F420 X104.491 Y79.996 E0.04000
G1 F420 X103.987 Y80.029 E0.04043
G1 F420 X103.088 Y80.029 E0.07197
G1 F420 X102.890 Y79.816 E0.02328
G1 F420 X102.688 Y79.397 E0.03724
G1 F420 X102.648 Y79.245 E0.01258
G1 F420 X102.480 Y78.886 E0.03173
G1 F420 X102.326 Y78.356 E0.04418
G1 F420 X102.232 Y77.900 E0.03727
G1 F420 X102.200 Y77.464 E0.03500
G1 F420 X102.200 Y76.129 E0.10687
G1 F420 X104.700 Y76.129 E0.20013
G1 F420 X104.700 Y71.029 E0.40827
G1 F420 X102.200 Y71.029 E0.20013
G1 F420 X102.200 Y70.429 E0.04803
G1 F420 X106.800 Y70.429 E0.36825
G1 F420 X106.800 Y75.429 E0.40027
G1 F420 X107.800 Y75.429 E0.08005
G1 F420 X107.800 Y76.223 E0.06356
G1 F420 X107.797 Y76.310 E0.00697
G1 F420 X107.744 Y76.842 E0.04280
G1 F420 X107.715 Y77.023 E0.01467
G1 F420 X107.547 Y77.585 E0.04696
G1 F420 X107.487 Y77.737 E0.01308
G1 F420 X107.219 Y78.242 E0.04577
G1 F12000 X106.640 Y78.073 
;TYPE:FILL
G1 F1140 X105.256 Y76.689 E0.15669
G1 F12000 X105.259 Y76.126 
G1 F1140 X106.855 Y77.722 E0.18069
G1 F12000 X107.036 Y77.337 
G1 F1140 X105.259 Y75.560 E0.20118
G1 F12000 X105.259 Y74.995 
G1 F1140 X106.239 Y75.975 E0.11095
G1 F12000 X106.253 Y75.989 
G1 F1140 X107.166 Y76.902 E0.10336
G1 F12000 X107.226 Y76.396 
G1 F1140 X106.819 Y75.989 E0.04608
G1 F12000 X106.239 Y75.409 
G1 F1140 X105.259 Y74.429 E0.11095
G1 F12000 X105.259 Y73.863 
G1 F1140 X106.239 Y74.843 E0.11095
G1 F12000 X106.239 Y74.278 
G1 F1140 X105.259 Y73.297 E0.11101
G1 F12000 X105.259 Y72.732 
G1 F1140 X106.239 Y73.712 E0.11095
G1 F12000 X106.239 Y73.146 
G1 F1140 X105.259 Y72.166 E0.11095
G1 F12000 X105.259 Y71.600 
G1 F1140 X106.239 Y72.580 E0.11095
G1 F12000 X106.239 Y72.015 
G1 F1140 X105.259 Y71.035 E0.11095
G1 F12000 X105.778 Y70.988 
G1 F1140 X106.239 Y71.449 E0.05219
G1 F12000 X105.041 Y76.470 
G1 F12000 X104.690 Y76.689 
G1 F1140 X106.389 Y78.388 E0.19235
G1 F12000 X106.109 Y78.674 
G1 F1140 X104.125 Y76.689 E0.22467
G1 F12000 X103.559 Y76.689 
G1 F1140 X105.786 Y78.916 E0.25213
G1 F12000 X105.429 Y79.125 
G1 F1140 X102.993 Y76.689 E0.27579
G1 F12000 X102.758 Y77.020 
G1 F1140 X105.029 Y79.290 E0.25705
G1 F12000 X104.579 Y79.406 
G1 F1140 X102.770 Y77.597 E0.20480
G1 F12000 X102.886 Y78.279 
G1 F1140 X104.055 Y79.448 E0.13235
G1 F12000 X103.504 Y79.462 
G1 F1140 X103.202 Y79.161 E0.03413
G1 F1140 X103.504 Y79.462 E0.03413
G1 F12000 X104.055 Y79.448 
;TYPE:SKIN
G1 F840 X103.234 Y78.627 E0.09295
G1 F12000 X103.794 Y78.621 
G1 F840 X104.579 Y79.406 E0.08887
G1 F12000 X105.029 Y79.290 
G1 F840 X104.354 Y78.616 E0.07636
G1 F12000 X104.914 Y78.609 
G1 F840 X105.607 Y79.020 E0.05837
G1 F840 X105.754 Y78.601 E0.03528
G1 F840 X106.109 Y78.674 E0.02901
;LAYER:25 height:5.300
G1 F12000 X106.017 Y78.962 Z5.300 
; Suppressed Tool Node -T start 287.33250737024105 T finish 301.70449796589276 ; Tool Node duration: 14.371990595651257
;TYPE:WALL-INNER
G1 F480 X105.754 Y79.138 E0.02533
G1 F480 X105.303 Y79.368 E0.04053
G1 F480 X104.837 Y79.521 E0.03926
G1 F480 X104.350 Y79.603 E0.03953
G1 F480 X103.187 Y79.629 E0.09313
G1 F480 X102.904 Y79.629 E0.02266
G1 F480 X102.880 Y79.536 E0.00769
G1 F480 X102.818 Y79.129 E0.03296
G1 F480 X102.721 Y78.775 E0.02938
G1 F480 X102.630 Y78.198 E0.04676
G1 F480 X102.600 Y70.829 E0.58992; Overhang detected in L=25 from X102.630 Y78.198
G1 F480 X106.600 Y70.829 E0.32022
G1 F480 X106.600 Y75.829 E0.40027
G1 F480 X107.400 Y75.829 E0.06404
G1 F480 X107.399 Y76.268 E0.03514
G1 F480 X107.343 Y76.821 E0.04450
G1 F480 X107.327 Y76.919 E0.00795
G1 F480 X107.158 Y77.483 E0.04713
G1 F480 X106.865 Y78.054 E0.05138
G1 F480 X106.748 Y78.223 E0.01645
G1 F480 X106.393 Y78.641 E0.04390
G1 F480 X106.017 Y78.962 E0.03958
G1 F12000 X106.250 Y79.288 
;TYPE:WALL-OUTER
G1 F420 X105.964 Y79.479 E0.02753
G1 F420 X105.456 Y79.739 E0.04568
G1 F420 X104.929 Y79.912 E0.04440
G1 F420 X104.392 Y80.002 E0.04359
G1 F420 X103.196 Y80.029 E0.09577
G1 F420 X102.588 Y80.029 E0.04867
G1 F420 X102.584 Y79.983 E0.00370
G1 F420 X102.489 Y79.623 E0.02981
G1 F420 X102.426 Y79.212 E0.03329
G1 F420 X102.329 Y78.859 E0.02931
G1 F420 X102.233 Y78.252 E0.04920
G1 F420 X102.200 Y70.429 E0.62627; Overhang detected in L=25 from X102.233 Y78.252
G1 F420 X107.000 Y70.429 E0.38426
G1 F420 X107.000 Y75.429 E0.40027
G1 F420 X107.800 Y75.429 E0.06404
G1 F420 X107.800 Y76.224 E0.06364
G1 F420 X107.798 Y76.291 E0.00537
G1 F420 X107.740 Y76.871 E0.04666
G1 F420 X107.718 Y77.008 E0.01111
G1 F420 X107.537 Y77.610 E0.05032
G1 F420 X107.492 Y77.724 E0.00981
G1 F420 X107.206 Y78.264 E0.04892
G1 F420 X107.064 Y78.470 E0.02003
G1 F420 X106.678 Y78.923 E0.04764
G1 F420 X106.250 Y79.288 E0.04503
G1 F12000 X105.745 Y78.950 
;TYPE:FILL
G1 F1140 X106.729 Y77.967 E0.11135
G1 F12000 X107.136 Y76.994 
G1 F1140 X104.757 Y79.372 E0.26928
G1 F12000 X104.116 Y79.448 
G1 F1140 X107.230 Y76.334 E0.35255
G1 F12000 X107.010 Y75.988 
G1 F1140 X103.538 Y79.460 E0.39308
G1 F12000 X103.022 Y79.410 
G1 F1140 X106.445 Y75.988 E0.38747
G1 F12000 X106.439 Y75.428 
G1 F1140 X102.931 Y78.936 E0.39715
G1 F12000 X102.835 Y78.466 
G1 F1140 X106.439 Y74.862 E0.40802
G1 F12000 X106.439 Y74.297 
G1 F1140 X104.659 Y76.076 E0.20146
G1 F12000 X104.647 Y76.088 
G1 F1140 X102.788 Y77.947 E0.21046
G1 F12000 X102.786 Y77.384 
G1 F1140 X104.081 Y76.088 E0.14667
G1 F12000 X103.516 Y76.088 
G1 F1140 X102.784 Y76.820 E0.08287
G1 F12000 X102.782 Y76.257 
G1 F1140 X102.864 Y75.891 E0.01899
G1 F1140 X102.818 Y75.372 E0.00897
G1 F1140 X102.815 Y74.809 E0.00879
G1 F1140 X102.813 Y74.245 E0.00880
G1 F1140 X102.811 Y73.682 E0.00879
G1 F1140 X102.808 Y73.119 E0.00879
G1 F1140 X102.806 Y72.555 E0.00880
G1 F1140 X102.803 Y71.992 E0.00879
G1 F1140 X102.801 Y71.428 E0.00880
G1 F1140 X102.859 Y71.088 E0.00890
G1 F1140 X103.201 Y71.028 E0.00903
G1 F1140 X103.767 Y71.028 E0.00906
G1 F1140 X104.333 Y71.028 E0.00906
G1 F1140 X104.657 Y71.269 E0.00905
G1 F1140 X105.222 Y70.988 E0.05052
G1 F12000 X105.788 Y70.988 
G1 F1140 X104.659 Y72.117 E0.12782
G1 F12000 X104.659 Y72.682 
G1 F1140 X106.353 Y70.988 E0.19178
G1 F12000 X106.439 Y71.468 
G1 F1140 X104.659 Y73.248 E0.20152
G1 F12000 X104.659 Y73.814 
G1 F1140 X106.439 Y72.034 E0.20152
G1 F12000 X106.439 Y72.600 
G1 F1140 X104.659 Y74.379 E0.20146
G1 F12000 X104.659 Y74.945 
G1 F1140 X106.439 Y73.165 E0.20152
G1 F12000 X106.439 Y73.731 
G1 F1140 X104.659 Y75.511 E0.20152
G1 F12000 X105.139 Y75.597 
;TYPE:SKIN
G1 F840 X104.167 Y76.569 E0.11004
G1 F12000 X104.733 Y76.569 
G1 F840 X105.139 Y76.163 E0.04596
G1 F12000 X105.139 Y75.031 
G1 F840 X103.601 Y76.569 E0.17412
G1 F12000 X103.036 Y76.569 
G1 F840 X105.139 Y74.466 E0.23809
G1 F12000 X105.139 Y73.900 
G1 F840 X102.782 Y76.257 E0.26684
G1 F12000 X102.779 Y75.694 
G1 F840 X105.139 Y73.334 E0.26718
G1 F12000 X105.139 Y72.769 
G1 F840 X102.777 Y75.130 E0.26735
G1 F12000 X102.775 Y74.567 
G1 F840 X105.139 Y72.203 E0.26764
G1 F12000 X105.139 Y71.637 
G1 F840 X102.773 Y74.003 E0.26786
G1 F12000 X102.770 Y73.440 
G1 F840 X105.139 Y71.072 E0.26815
G1 F12000 X104.656 Y70.988 
G1 F840 X102.768 Y72.877 E0.21380
G1 F12000 X102.765 Y72.313 
G1 F840 X104.091 Y70.988 E0.15006
G1 F12000 X103.525 Y70.988 
G1 F840 X102.763 Y71.750 E0.08627
G1 F12000 X102.761 Y71.186 
G1 F840 X102.959 Y70.988 E0.02242
;LAYER:26 height:5.500
G1 F12000 X102.600 Y70.829 Z5.500 
; Suppressed Tool Node -T start 301.70449796589276 T finish 315.14356101601516 ; Tool Node duration: 13.439063050122613
;TYPE:WALL-INNER
G1 F480 X106.800 Y70.829 E0.33623
G1 F480 X106.800 Y75.829 E0.40027
G1 F480 X107.400 Y75.829 E0.04803
G1 F480 X107.398 Y76.252 E0.03386
G1 F480 X107.342 Y76.824 E0.04601
G1 F480 X107.304 Y77.000 E0.01441
G1 F480 X107.162 Y77.466 E0.03900
G1 F480 X106.846 Y78.084 E0.05557
G1 F480 X106.774 Y78.189 E0.01019
G1 F480 X106.400 Y78.633 E0.04647
G1 F480 X105.970 Y78.996 E0.04505
G1 F480 X105.798 Y79.111 E0.01656
G1 F480 X105.301 Y79.369 E0.04483
G1 F480 X104.798 Y79.529 E0.04226
G1 F480 X104.254 Y79.610 E0.04403
G1 F480 X103.387 Y79.629 E0.06942
G1 F480 X102.744 Y79.629 E0.05147
G1 F480 X102.632 Y78.696 E0.07523
G1 F480 X102.600 Y78.106 E0.04730
G1 F480 X102.600 Y70.829 E0.58255
G1 F12000 X102.200 Y70.429 
;TYPE:WALL-OUTER
G1 F420 X107.200 Y70.429 E0.40027
G1 F420 X107.200 Y75.429 E0.40027
G1 F420 X107.800 Y75.429 E0.04803
G1 F420 X107.800 Y76.222 E0.06348
G1 F420 X107.798 Y76.273 E0.00409
G1 F420 X107.737 Y76.886 E0.04932
G1 F420 X107.535 Y77.617 E0.06071
G1 F420 X107.192 Y78.286 E0.06018
G1 F420 X106.682 Y78.919 E0.06507
G1 F420 X106.213 Y79.314 E0.04909
G1 F420 X106.006 Y79.454 E0.02001
G1 F420 X105.451 Y79.741 E0.05002
G1 F420 X104.887 Y79.921 E0.04739
G1 F420 X104.290 Y80.009 E0.04831
G1 F420 X103.396 Y80.029 E0.07159
G1 F420 X102.395 Y80.029 E0.08013
G1 F420 X102.392 Y79.973 E0.00449
G1 F420 X102.233 Y78.726 E0.10064
G1 F420 X102.200 Y78.108 E0.04954
G1 F420 X102.200 Y70.429 E0.61473
G1 F12000 X102.950 Y70.989 
;TYPE:FILL
G1 F1140 X106.639 Y74.678 E0.41764
G1 F12000 X106.639 Y75.243 
G1 F1140 X102.759 Y71.364 E0.43921
G1 F12000 X102.759 Y71.929 
G1 F1140 X106.639 Y75.809 E0.43927
G1 F12000 X106.819 Y75.989 
G1 F1140 X107.223 Y76.393 E0.04574
G1 F12000 X107.162 Y76.898 
G1 F1140 X102.759 Y72.495 E0.49848; Overhang detected in L=26 from X107.162 Y76.898
G1 F12000 X102.759 Y73.061 
G1 F1140 X107.034 Y77.336 E0.48399
G1 F12000 X106.852 Y77.719 
G1 F1140 X102.759 Y73.626 E0.46338
G1 F12000 X102.759 Y74.192 
G1 F1140 X106.651 Y78.084 E0.44063
G1 F12000 X106.393 Y78.391 
G1 F1140 X102.759 Y74.758 E0.41136
G1 F12000 X102.759 Y75.323 
G1 F1140 X106.105 Y78.669 E0.37881
G1 F12000 X105.790 Y78.920 
G1 F1140 X102.759 Y75.889 E0.34315
G1 F12000 X102.759 Y76.455 
G1 F1140 X105.426 Y79.121 E0.30188
G1 F12000 X105.025 Y79.287 
G1 F1140 X102.759 Y77.020 E0.25660
G1 F12000 X102.759 Y77.586 
G1 F1140 X104.572 Y79.399 E0.20526
G1 F12000 X104.059 Y79.451 
G1 F1140 X102.762 Y78.155 E0.14678
G1 F12000 X102.799 Y78.758 
G1 F1140 X103.502 Y79.460 E0.07953
G1 F12000 X102.944 Y79.468 
G1 F1140 X102.877 Y79.401 E0.00759
G1 F12000 X106.639 Y74.112 
G1 F1140 X103.516 Y70.989 E0.35356
G1 F12000 X104.081 Y70.989 
G1 F1140 X106.639 Y73.546 E0.28954
G1 F12000 X106.639 Y72.981 
G1 F1140 X104.647 Y70.989 E0.22552
G1 F12000 X105.213 Y70.989 
G1 F1140 X106.639 Y72.415 E0.16144
G1 F12000 X106.639 Y71.849 
G1 F1140 X105.778 Y70.989 E0.09742
G1 F12000 X106.344 Y70.989 
G1 F1140 X106.639 Y71.284 E0.03340
;LAYER:27 height:5.700
G1 F12000 X107.000 Y70.829 Z5.700 
; Suppressed Tool Node -T start 315.14356101601516 T finish 328.6932079533542 ; Tool Node duration: 13.549646937339327
;TYPE:WALL-INNER
G1 F480 X107.000 Y75.829 E0.40027
G1 F480 X107.400 Y75.829 E0.03202
G1 F480 X107.400 Y76.229 E0.03202
G1 F480 X107.339 Y76.836 E0.04884
G1 F480 X107.149 Y77.503 E0.05552
G1 F480 X106.834 Y78.103 E0.05425
G1 F480 X106.801 Y78.152 E0.00473
G1 F480 X106.457 Y78.571 E0.04340
G1 F480 X105.940 Y79.019 E0.05476
G1 F480 X105.297 Y79.369 E0.05861
G1 F480 X104.751 Y79.541 E0.04583
G1 F480 X104.163 Y79.616 E0.04745
G1 F480 X103.586 Y79.629 E0.04620
G1 F480 X102.657 Y79.629 E0.07437
G1 F480 X102.607 Y78.631 E0.07999
G1 F480 X102.600 Y76.541 E0.16731
G1 F480 X102.600 Y70.829 E0.45727
G1 F480 X107.000 Y70.829 E0.35224
G1 F12000 X107.400 Y70.429 
;TYPE:WALL-OUTER
G1 F420 X107.400 Y75.429 E0.40027
G1 F420 X107.800 Y75.429 E0.03202
G1 F420 X107.800 Y76.224 E0.06364
G1 F420 X107.799 Y76.254 E0.00240
G1 F420 X107.734 Y76.914 E0.05309
G1 F420 X107.525 Y77.644 E0.06079
G1 F420 X107.180 Y78.306 E0.05976
G1 F420 X106.770 Y78.820 E0.05263
G1 F420 X106.681 Y78.921 E0.01078
G1 F420 X106.181 Y79.339 E0.05217
G1 F420 X106.043 Y79.431 E0.01328
G1 F420 X105.455 Y79.738 E0.05310
G1 F420 X104.833 Y79.934 E0.05221
G1 F420 X104.195 Y80.015 E0.05148
G1 F420 X103.595 Y80.029 E0.04805
G1 F420 X102.283 Y80.029 E0.10503
G1 F420 X102.283 Y79.962 E0.00536
G1 F420 X102.234 Y79.376 E0.04708
G1 F420 X102.207 Y78.646 E0.05848
G1 F420 X102.200 Y70.429 E0.65780
G1 F420 X107.400 Y70.429 E0.41628
G1 F12000 X106.838 Y71.069 
;TYPE:FILL
G1 F1140 X102.763 Y75.144 E0.46134
G1 F12000 X102.763 Y74.579 
G1 F1140 X106.353 Y70.989 E0.40644
G1 F12000 X105.787 Y70.989 
G1 F1140 X102.762 Y74.014 E0.34247
G1 F12000 X102.762 Y73.448 
G1 F1140 X105.221 Y70.989 E0.27839
G1 F12000 X104.656 Y70.989 
G1 F1140 X102.761 Y72.883 E0.21448
G1 F12000 X102.761 Y72.318 
G1 F1140 X104.090 Y70.989 E0.15046
G1 F12000 X103.524 Y70.989 
G1 F1140 X102.761 Y71.752 E0.08638
G1 F12000 X102.760 Y71.187 
G1 F1140 X102.958 Y70.989 E0.02242
G1 F12000 X106.838 Y71.634 
G1 F1140 X102.764 Y75.709 E0.46129
G1 F12000 X102.764 Y76.274 
G1 F1140 X106.838 Y72.200 E0.46123
G1 F12000 X106.838 Y72.766 
G1 F1140 X102.765 Y76.839 E0.46112
G1 F12000 X102.765 Y77.404 
G1 F1140 X106.838 Y73.331 E0.46112
G1 F12000 X106.838 Y73.897 
G1 F1140 X102.766 Y77.969 E0.46100
G1 F12000 X102.766 Y78.535 
G1 F1140 X106.838 Y74.463 E0.46100
G1 F12000 X106.838 Y75.028 
G1 F1140 X102.789 Y79.078 E0.45846
G1 F12000 X102.965 Y79.468 
G1 F1140 X106.838 Y75.594 E0.43853
G1 F12000 X107.010 Y75.989 
G1 F1140 X103.536 Y79.462 E0.39325
G1 F12000 X104.108 Y79.456 
G1 F1140 X107.227 Y76.337 E0.35311
G1 F12000 X107.122 Y77.008 
G1 F1140 X104.760 Y79.369 E0.26735
G1 F12000 X105.765 Y78.930 
G1 F1140 X106.716 Y77.979 E0.10767
;LAYER:28 height:5.900
M104T215
G1 F12000 X106.836 Y78.097 Z5.900 
; Suppressed Tool Node -T start 328.6932079533542 T finish 342.43994708688484 ; Tool Node duration: 13.746739133530799
;TYPE:WALL-INNER
G1 F480 X106.426 Y78.605 E0.05226
G1 F480 X106.366 Y78.664 E0.00674
G1 F480 X105.922 Y79.029 E0.04601
G1 F480 X105.341 Y79.348 E0.05306
G1 F480 X105.305 Y79.366 E0.00322
G1 F480 X104.707 Y79.550 E0.05009
G1 F480 X104.069 Y79.622 E0.05140
G1 F480 X103.511 Y79.629 E0.04467
G1 F480 X102.616 Y79.629 E0.07165
G1 F480 X102.600 Y79.105 E0.04197
G1 F480 X102.600 Y70.829 E0.66253
G1 F480 X107.200 Y70.829 E0.36825
G1 F480 X107.200 Y75.829 E0.40027
G1 F480 X107.400 Y75.829 E0.01601
G1 F480 X107.400 Y76.217 E0.03106
G1 F480 X107.336 Y76.862 E0.05189
G1 F480 X107.145 Y77.513 E0.05431
G1 F480 X106.836 Y78.097 E0.05289
G1 F12000 X107.170 Y78.319 
;TYPE:WALL-OUTER
G1 F420 X106.723 Y78.873 E0.05699
G1 F420 X106.145 Y79.363 E0.06066
G1 F420 X105.530 Y79.701 E0.05618
G1 F420 X105.456 Y79.738 E0.00662
G1 F420 X104.791 Y79.943 E0.05571
G1 F420 X104.089 Y80.022 E0.05655
G1 F420 X103.516 Y80.029 E0.04587
G1 F420 X102.219 Y80.029 E0.10383
G1 F420 X102.200 Y79.124 E0.07246
G1 F420 X102.200 Y70.429 E0.69607
G1 F420 X107.600 Y70.429 E0.43229
G1 F420 X107.600 Y75.429 E0.40027
G1 F420 X107.800 Y75.429 E0.01601
G1 F420 X107.800 Y76.237 E0.06468
G1 F420 X107.730 Y76.941 E0.05664
G1 F420 X107.518 Y77.660 E0.06001
G1 F420 X107.170 Y78.319 E0.05966
G1 F12000 X106.645 Y78.078 
;TYPE:FILL
G1 F1140 X102.758 Y74.191 E0.44006
G1 F12000 X102.758 Y73.626 
G1 F1140 X106.853 Y77.720 E0.46355
G1 F12000 X107.030 Y77.332 
G1 F1140 X102.758 Y73.060 E0.48365
G1 F12000 X102.758 Y72.494 
G1 F1140 X107.159 Y76.895 E0.49825
G1 F12000 X107.221 Y76.391 
G1 F1140 X102.758 Y71.929 E0.50521
G1 F12000 X102.758 Y71.363 
G1 F1140 X107.039 Y75.644 E0.48467
G1 F12000 X107.039 Y75.078 
G1 F1140 X102.950 Y70.989 E0.46293
G1 F12000 X103.516 Y70.989 
G1 F1140 X107.039 Y74.512 E0.39885
G1 F12000 X107.039 Y73.947 
G1 F1140 X104.081 Y70.989 E0.33488
G1 F12000 X104.647 Y70.989 
G1 F1140 X107.039 Y73.381 E0.27081
G1 F12000 X107.039 Y72.815 
G1 F1140 X105.213 Y70.989 E0.20673
G1 F12000 X105.778 Y70.989 
G1 F1140 X107.039 Y72.250 E0.14276
G1 F12000 X107.039 Y71.684 
G1 F1140 X106.344 Y70.989 E0.07868
G1 F12000 X106.910 Y70.989 
G1 F1140 X107.039 Y71.118 E0.01460
G1 F12000 X102.758 Y74.757 
G1 F1140 X106.392 Y78.391 E0.41142
G1 F12000 X106.106 Y78.670 
G1 F1140 X102.758 Y75.323 E0.37898
G1 F12000 X102.758 Y75.888 
G1 F1140 X105.789 Y78.919 E0.34315
G1 F12000 X105.423 Y79.119 
G1 F1140 X102.758 Y76.454 E0.30171
G1 F12000 X102.758 Y77.020 
G1 F1140 X105.023 Y79.284 E0.25637
G1 F12000 X104.575 Y79.402 
G1 F1140 X102.758 Y77.585 E0.20571
G1 F12000 X102.758 Y78.151 
G1 F1140 X104.067 Y79.460 E0.14820
G1 F12000 X103.506 Y79.464 
G1 F1140 X102.758 Y78.717 E0.08463
G1 F12000 X102.764 Y79.288 
G1 F1140 X102.943 Y79.467 E0.02027
;LAYER:29 height:6.100
G1 F12000 X103.971 Y79.629 Z6.100 
